;This Gcode has been generated specifically for the LulzBot Mini
;Basic settings: Layer height: 0.25 Walls: 1 Fill: 20
;Filament Diameter: 2.85
;Nozzle Size: 0.5
G26                          ; clear potential 'probe fail' condition
G21                          ; metric values
G90                          ; absolute positioning
M82                          ; set extruder to absolute mode
M107                         ; start with the fan off
G92 E0                       ; set extruder position to 0
M140 S60; get bed heating up
G28                          ; home all
M109 R140                    ; set to cleaning temp and wait
G1 Z150 E-30 F75             ; suck up XXmm of filament
M109 R140                    ; heat up rest of way
G1 X45 Y174 F11520           ; move behind scraper
G1 Z0  F1200                 ; CRITICAL: set Z to height of top of scraper
G1 X45 Y174 Z-.5 F4000       ; wiping ; plunge into wipe pad
G1 X55 Y172 Z-.5 F4000       ; wiping
G1 X45 Y174 Z0 F4000         ; wiping
G1 X55 Y172 F4000            ; wiping
G1 X45 Y174 F4000            ; wiping
G1 X55 Y172 F4000            ; wiping
G1 X45 Y174 F4000            ; wiping
G1 X55 Y172 F4000            ; wiping
G1 X60 Y174 F4000            ; wiping
G1 X80 Y172 F4000            ; wiping
G1 X60 Y174 F4000            ; wiping
G1 X80 Y172 F4000            ; wiping
G1 X60 Y174 F4000            ; wiping
G1 X90 Y172 F4000            ; wiping
G1 X80 Y174 F4000            ; wiping
G1 X100 Y172 F4000           ; wiping
G1 X80 Y174 F4000            ; wiping
G1 X100 Y172 F4000           ; wiping
G1 X80 Y174 F4000            ; wiping
G1 X100 Y172 F4000           ; wiping
G1 X110 Y174 F4000           ; wiping
G1 X100 Y172 F4000           ; wiping
G1 X110 Y174 F4000           ; wiping
G1 X100 Y172 F4000           ; wiping
G1 X110 Y174 F4000           ; wiping
G1 X115 Y172 Z-0.5 F1000     ; wipe slower and bury noz in cleanish area
G1 Z10                       ; raise z
G28 X0 Y0                    ; home x and y
M109 R140                    ; set to probing temp
M204 S300                    ; Set probing acceleration
G29                          ; Probe
M204 S2000                   ; Restore standard acceleration
G1 X5 Y15 Z10 F5000          ; get out the way
G4 S1                        ; pause
M400                         ; clear buffer
M109 R205    ; set extruder temp and wait
G4 S15                       ; wait for bed to temp up
G1 Z2 E0 F75                 ; extrude filament back into nozzle
M140 S60; get bed temping up during first layer

;Layer count: 87
;LAYER:0
M107
G0 F10500 X31.168 Y40.855 Z0.425
;TYPE:SKIRT
G1 F900 X93.948 Y40.855 E2.61403
G1 X93.948 Y52.023 E3.07904
G1 X128.832 Y52.023 E4.53154
G1 X128.832 Y102.124 E6.61764
G1 X94.646 Y102.124 E8.04108
G1 X94.646 Y115.145 E8.58325
G1 X31.168 Y115.145 E11.22634
G1 X31.168 Y40.855 E14.31962
G1 F600 E12.56962
G1 Z0.525
G0 F10500 X35.417 Y45.104
;TYPE:WALL-INNER
G1 Z0.425
G1 F600 E14.31962
G1 F900 X89.699 Y45.104 E16.57982
G1 X89.699 Y56.272 E17.04483
G1 X124.583 Y56.272 E18.49733
G1 X124.583 Y97.875 E20.22959
G1 X90.397 Y97.875 E21.65303
G1 X90.397 Y110.896 E22.19519
G1 X35.417 Y110.896 E24.48445
G1 X35.417 Y45.104 E27.22389
G0 F10500 X41.923 Y52.554
G1 F900 X41.685 Y52.823 E27.23885
G1 X41.470 Y53.111 E27.25381
G1 X41.150 Y53.686 E27.28121
G1 X40.930 Y54.323 E27.30927
G1 X40.829 Y54.921 E27.33452
G1 X40.816 Y55.258 E27.34857
G1 X40.818 Y56.434 E27.39753
G1 X40.809 Y61.149 E27.59386
G1 X40.809 Y96.400 E29.06164
G1 X40.817 Y101.111 E29.25779
G1 X40.816 Y102.313 E29.30784
G1 X40.869 Y102.948 E29.33437
G1 X41.042 Y103.590 E29.36206
G1 X41.212 Y103.989 E29.38012
G1 X41.551 Y104.555 E29.40759
G1 X41.994 Y105.069 E29.43584
G1 X42.519 Y105.493 E29.46394
G1 X43.061 Y105.802 E29.48992
G1 X43.697 Y106.034 E29.51811
G1 X44.345 Y106.147 E29.54549
G1 X44.684 Y106.161 E29.55962
G1 X45.849 Y106.158 E29.60813
G1 X50.502 Y106.167 E29.80187
G1 X73.704 Y106.167 E30.76796
G1 X78.356 Y106.159 E30.96166
G1 X79.542 Y106.161 E31.01104
G1 X80.160 Y106.108 E31.03687
G1 X80.565 Y106.015 E31.05417
G1 X80.889 Y105.906 E31.06840
G1 X81.219 Y105.764 E31.08336
G1 X81.784 Y105.426 E31.11077
G1 X82.297 Y104.981 E31.13905
G1 X82.721 Y104.459 E31.16705
G1 X83.030 Y103.916 E31.19307
G1 X83.262 Y103.279 E31.22129
G1 X83.375 Y102.629 E31.24876
G1 X83.388 Y102.291 E31.26285
G1 X83.386 Y101.115 E31.31181
G1 X83.395 Y96.400 E31.50814
G1 X83.395 Y61.149 E32.97592
G1 X83.387 Y56.438 E33.17207
G1 X83.388 Y55.236 E33.22212
G1 X83.336 Y54.619 E33.24790
G1 X83.239 Y54.192 E33.26614
G1 X83.002 Y53.575 E33.29366
G1 X82.654 Y52.993 E33.32189
G1 X82.210 Y52.481 E33.35011
G1 X81.684 Y52.052 E33.37837
G1 X81.091 Y51.722 E33.40663
G1 X80.454 Y51.502 E33.43469
G1 X79.856 Y51.401 E33.45994
G1 X79.520 Y51.388 E33.47394
G1 X78.704 Y51.390 E33.50792
G1 X75.454 Y51.381 E33.64324
G1 X50.852 Y51.381 E34.66762
G1 X45.918 Y51.389 E34.87306
G1 X44.664 Y51.388 E34.92528
G1 X44.029 Y51.441 E34.95181
G1 X43.387 Y51.614 E34.97949
G1 X42.988 Y51.784 E34.99755
G1 X42.422 Y52.123 E35.02502
G1 X41.923 Y52.554 E35.05248
G0 F10500 X44.049 Y51.553
G0 X80.425 Y51.612
G0 X82.131 Y52.563
G0 X83.224 Y54.637
G0 X95.317 Y74.251
G1 F900 X95.083 Y74.891 E35.08085
G1 X94.885 Y75.543 E35.10922
G1 X94.724 Y76.204 E35.13755
G1 X94.599 Y76.874 E35.16593
G1 X94.512 Y77.550 E35.19431
G1 X94.464 Y78.228 E35.22261
G1 X94.452 Y78.908 E35.25093
G1 X94.479 Y79.590 E35.27935
G1 X94.543 Y80.267 E35.30766
G1 X94.645 Y80.945 E35.33621
G1 X94.783 Y81.608 E35.36441
G1 X94.960 Y82.266 E35.39278
G1 X95.172 Y82.913 E35.42113
G1 X95.419 Y83.546 E35.44942
G1 X95.701 Y84.166 E35.47778
G1 X96.019 Y84.769 E35.50617
G1 X96.368 Y85.353 E35.53450
G1 X96.751 Y85.919 E35.56295
G1 X97.162 Y86.459 E35.59121
G1 X97.604 Y86.978 E35.61959
G1 X98.075 Y87.471 E35.64798
G1 X98.572 Y87.937 E35.67635
G1 X99.093 Y88.374 E35.70466
G1 X99.639 Y88.783 E35.73307
G1 X100.206 Y89.160 E35.76142
G1 X100.792 Y89.505 E35.78973
G1 X101.398 Y89.817 E35.81812
G1 X102.020 Y90.094 E35.84647
G1 X102.656 Y90.337 E35.87482
G1 X103.306 Y90.545 E35.90323
G1 X103.964 Y90.715 E35.93153
G1 X104.632 Y90.849 E35.95990
G1 X105.307 Y90.945 E35.98829
G1 X105.987 Y91.004 E36.01671
G1 X106.667 Y91.024 E36.04503
G1 X107.325 Y91.008 E36.07244
G1 X107.383 Y91.006 E36.07485
G1 X108.027 Y90.953 E36.10176
G1 X108.702 Y90.861 E36.13013
G1 X109.369 Y90.730 E36.15843
G1 X110.029 Y90.564 E36.18677
G1 X110.681 Y90.360 E36.21521
G1 X111.317 Y90.121 E36.24350
G1 X111.942 Y89.847 E36.27192
G1 X112.549 Y89.539 E36.30026
G1 X113.137 Y89.198 E36.32856
G1 X113.706 Y88.824 E36.35691
G1 X114.255 Y88.419 E36.38532
G1 X114.780 Y87.983 E36.41373
G1 X115.278 Y87.520 E36.44205
G1 X115.750 Y87.031 E36.47034
G1 X116.195 Y86.516 E36.49868
G1 X116.612 Y85.976 E36.52709
G1 X116.996 Y85.413 E36.55547
G1 X117.350 Y84.832 E36.58380
G1 X117.669 Y84.231 E36.61213
G1 X117.957 Y83.613 E36.64052
G1 X118.209 Y82.979 E36.66892
G1 X118.424 Y82.332 E36.69731
G1 X118.604 Y81.677 E36.72560
G1 X118.753 Y80.982 E36.75519
G1 X118.858 Y80.303 E36.78380
G1 X118.920 Y79.659 E36.81074
G1 X118.949 Y78.999 E36.83825
G1 X118.951 Y78.939 E36.84075
G1 X118.943 Y78.298 E36.86744
G1 X118.898 Y77.619 E36.89577
G1 X118.814 Y76.944 E36.92410
G1 X118.695 Y76.275 E36.95239
G1 X118.538 Y75.611 E36.98080
G1 X118.343 Y74.959 E37.00913
G1 X118.113 Y74.317 E37.03753
G1 X117.846 Y73.689 E37.06594
G1 X117.547 Y73.078 E37.09427
G1 X117.213 Y72.485 E37.12261
G1 X116.847 Y71.910 E37.15099
G1 X116.450 Y71.357 E37.17933
G1 X116.002 Y70.799 E37.20913
G1 X115.543 Y70.294 E37.23754
G1 X115.083 Y69.840 E37.26445
G1 X114.574 Y69.389 E37.29277
G1 X114.040 Y68.966 E37.32113
G1 X113.484 Y68.574 E37.34946
G1 X112.907 Y68.212 E37.37782
G1 X112.310 Y67.883 E37.40620
G1 X111.696 Y67.589 E37.43455
G1 X111.067 Y67.328 E37.46291
G1 X110.424 Y67.104 E37.49126
G1 X109.769 Y66.915 E37.51964
G1 X109.106 Y66.763 E37.54796
G1 X108.434 Y66.647 E37.57636
G1 X107.758 Y66.570 E37.60469
G1 X107.078 Y66.530 E37.63305
G1 X106.396 Y66.528 E37.66145
G1 X105.717 Y66.565 E37.68976
G1 X105.039 Y66.637 E37.71815
G1 X104.367 Y66.749 E37.74652
G1 X103.702 Y66.897 E37.77489
G1 X103.047 Y67.082 E37.80322
G1 X102.404 Y67.303 E37.83154
G1 X101.772 Y67.560 E37.85994
G1 X101.157 Y67.851 E37.88827
G1 X100.557 Y68.176 E37.91668
G1 X99.979 Y68.535 E37.94502
G1 X99.440 Y68.910 E37.97236
G1 X99.390 Y68.945 E37.97490
G1 X98.883 Y69.344 E38.00176
G1 X98.372 Y69.793 E38.03008
G1 X97.885 Y70.270 E38.05847
G1 X97.427 Y70.773 E38.08679
G1 X96.997 Y71.300 E38.11511
G1 X96.596 Y71.851 E38.14349
G1 X96.227 Y72.424 E38.17187
G1 X95.890 Y73.015 E38.20020
G1 X95.587 Y73.625 E38.22856
G1 X95.317 Y74.251 E38.25694
G0 F10500 X95.898 Y74.482
;TYPE:WALL-OUTER
G1 F900 X95.676 Y75.089 E38.28385
G1 X95.488 Y75.708 E38.31079
G1 X95.335 Y76.335 E38.33766
G1 X95.217 Y76.971 E38.36460
G1 X95.134 Y77.612 E38.39151
G1 X95.088 Y78.256 E38.41839
G1 X95.077 Y78.901 E38.44525
G1 X95.103 Y79.548 E38.47221
G1 X95.163 Y80.191 E38.49910
G1 X95.261 Y80.834 E38.52619
G1 X95.391 Y81.463 E38.55293
G1 X95.559 Y82.087 E38.57984
G1 X95.760 Y82.702 E38.60678
G1 X95.995 Y83.302 E38.63361
G1 X96.263 Y83.891 E38.66055
G1 X96.564 Y84.463 E38.68747
G1 X96.896 Y85.018 E38.71439
G1 X97.258 Y85.554 E38.74132
G1 X97.649 Y86.067 E38.76818
G1 X98.068 Y86.559 E38.79509
G1 X98.515 Y87.027 E38.82204
G1 X98.987 Y87.469 E38.84896
G1 X99.481 Y87.885 E38.87585
G1 X99.999 Y88.272 E38.90278
G1 X100.537 Y88.630 E38.92968
G1 X101.094 Y88.957 E38.95658
G1 X101.669 Y89.253 E38.98350
G1 X102.259 Y89.516 E39.01040
G1 X102.863 Y89.747 E39.03733
G1 X103.479 Y89.944 E39.06426
G1 X104.104 Y90.105 E39.09113
G1 X104.738 Y90.233 E39.11806
G1 X105.379 Y90.324 E39.14502
G1 X106.023 Y90.380 E39.17193
G1 X106.668 Y90.399 E39.19880
G1 X107.307 Y90.383 E39.22542
G1 X107.348 Y90.382 E39.22712
G1 X107.959 Y90.331 E39.25265
G1 X108.599 Y90.244 E39.27955
G1 X109.233 Y90.120 E39.30645
G1 X109.860 Y89.962 E39.33337
G1 X110.478 Y89.769 E39.36033
G1 X111.082 Y89.542 E39.38719
G1 X111.675 Y89.282 E39.41415
G1 X112.250 Y88.989 E39.44103
G1 X112.809 Y88.666 E39.46791
G1 X113.348 Y88.311 E39.49478
G1 X113.869 Y87.927 E39.52173
G1 X114.367 Y87.514 E39.54867
G1 X114.841 Y87.074 E39.57560
G1 X115.289 Y86.609 E39.60248
G1 X115.711 Y86.120 E39.62938
G1 X116.106 Y85.608 E39.65630
G1 X116.470 Y85.074 E39.68321
G1 X116.806 Y84.522 E39.71012
G1 X117.109 Y83.952 E39.73700
G1 X117.383 Y83.366 E39.76393
G1 X117.621 Y82.765 E39.79085
G1 X117.826 Y82.151 E39.81780
G1 X117.996 Y81.529 E39.84465
G1 X118.138 Y80.869 E39.87276
G1 X118.238 Y80.225 E39.89990
G1 X118.296 Y79.615 E39.92541
G1 X118.325 Y78.976 E39.95204
G1 X118.326 Y78.934 E39.95379
G1 X118.318 Y78.323 E39.97924
G1 X118.276 Y77.678 E40.00615
G1 X118.196 Y77.037 E40.03305
G1 X118.083 Y76.402 E40.05990
G1 X117.934 Y75.772 E40.08686
G1 X117.749 Y75.154 E40.11372
G1 X117.531 Y74.544 E40.14069
G1 X117.278 Y73.949 E40.16761
G1 X116.993 Y73.369 E40.19452
G1 X116.677 Y72.806 E40.22140
G1 X116.330 Y72.260 E40.24834
G1 X115.952 Y71.735 E40.27528
G1 X115.526 Y71.205 E40.30359
G1 X115.092 Y70.727 E40.33047
G1 X114.656 Y70.297 E40.35597
G1 X114.172 Y69.868 E40.38290
G1 X113.666 Y69.467 E40.40978
G1 X113.138 Y69.094 E40.43670
G1 X112.590 Y68.751 E40.46362
G1 X112.024 Y68.439 E40.49053
G1 X111.441 Y68.160 E40.51744
G1 X110.844 Y67.912 E40.54436
G1 X110.234 Y67.700 E40.57125
G1 X109.612 Y67.520 E40.59821
G1 X108.983 Y67.376 E40.62508
G1 X108.345 Y67.266 E40.65203
G1 X107.704 Y67.193 E40.67889
G1 X107.059 Y67.155 E40.70580
G1 X106.412 Y67.153 E40.73274
G1 X105.767 Y67.188 E40.75963
G1 X105.124 Y67.257 E40.78656
G1 X104.486 Y67.363 E40.81349
G1 X103.856 Y67.503 E40.84036
G1 X103.234 Y67.679 E40.86728
G1 X102.624 Y67.889 E40.89414
G1 X102.023 Y68.132 E40.92113
G1 X101.440 Y68.409 E40.94801
G1 X100.871 Y68.717 E40.97495
G1 X100.323 Y69.057 E41.00180
G1 X99.798 Y69.422 E41.02842
G1 X99.283 Y69.825 E41.05565
G1 X98.797 Y70.251 E41.08256
G1 X98.335 Y70.703 E41.10947
G1 X97.901 Y71.181 E41.13636
G1 X97.492 Y71.681 E41.16325
G1 X97.111 Y72.205 E41.19023
G1 X96.761 Y72.748 E41.21713
G1 X96.442 Y73.309 E41.24400
G1 X96.154 Y73.888 E41.27093
G1 X95.898 Y74.482 E41.29786
G0 F10500 X95.511 Y74.341
G0 X83.178 Y61.150
G0 X82.770 Y61.150
G1 F900 X82.763 Y55.262 E41.54302
G1 X82.717 Y54.715 E41.56588
G1 X82.639 Y54.375 E41.58040
G1 X82.438 Y53.849 E41.60385
G1 X82.146 Y53.361 E41.62753
G1 X81.773 Y52.931 E41.65123
G1 X81.332 Y52.572 E41.67491
G1 X80.835 Y52.295 E41.69860
G1 X80.298 Y52.110 E41.72225
G1 X79.791 Y52.024 E41.74366
G1 X79.509 Y52.013 E41.75541
G1 X78.702 Y52.015 E41.78901
G1 X44.690 Y52.013 E43.20520
G1 X44.137 Y52.059 E43.22831
G1 X43.592 Y52.206 E43.25181
G1 X43.272 Y52.342 E43.26629
G1 X42.790 Y52.631 E43.28969
G1 X42.363 Y53.000 E43.31319
G1 X42.171 Y53.217 E43.32525
G1 X41.996 Y53.451 E43.33742
G1 X41.723 Y53.942 E43.36081
G1 X41.538 Y54.479 E43.38446
G1 X41.452 Y54.986 E43.40587
G1 X41.441 Y55.269 E43.41767
G1 X41.443 Y56.435 E43.46622
G1 X41.434 Y96.399 E45.13023
G1 X41.441 Y102.287 E45.37540
G1 X41.487 Y102.840 E45.39850
G1 X41.634 Y103.385 E45.42201
G1 X41.770 Y103.705 E45.43649
G1 X42.059 Y104.187 E45.45989
G1 X42.431 Y104.618 E45.48359
G1 X42.872 Y104.975 E45.50722
G1 X43.324 Y105.233 E45.52889
G1 X43.858 Y105.428 E45.55256
G1 X44.413 Y105.524 E45.57601
G1 X44.697 Y105.536 E45.58785
G1 X45.850 Y105.533 E45.63586
G1 X73.703 Y105.542 E46.79560
G1 X78.356 Y105.534 E46.98934
G1 X79.516 Y105.536 E47.03764
G1 X80.063 Y105.489 E47.06050
G1 X80.395 Y105.413 E47.07468
G1 X80.666 Y105.322 E47.08658
G1 X80.933 Y105.206 E47.09870
G1 X81.416 Y104.918 E47.12212
G1 X81.846 Y104.545 E47.14582
G1 X82.203 Y104.105 E47.16941
G1 X82.461 Y103.653 E47.19108
G1 X82.656 Y103.118 E47.21479
G1 X82.752 Y102.563 E47.23825
G1 X82.763 Y102.280 E47.25004
G1 X82.761 Y101.114 E47.29859
G1 X82.770 Y61.150 E48.96261
G0 F10500 X83.178 Y61.150
G0 X89.911 Y55.647
G0 X90.324 Y55.647
G1 F900 X125.208 Y55.647 E50.41511
G1 X125.208 Y98.500 E52.19942
G1 X91.022 Y98.500 E53.62285
G1 X91.022 Y111.521 E54.16502
G1 X34.792 Y111.521 E56.50632
G1 X34.792 Y44.479 E59.29781
G1 X90.324 Y44.479 E61.61005
G1 X90.324 Y55.647 E62.07506
G0 F10500 X90.520 Y56.491
;TYPE:SKIN
G1 F900 X101.482 Y67.453 E62.72056
G0 F10500 X100.890 Y67.745
G1 F900 X89.636 Y56.491 E63.38325
G0 F10500 X89.479 Y56.334
G1 F900 X78.468 Y45.323 E64.03163
G0 F10500 X77.584 Y45.323
G1 F900 X100.322 Y68.061 E65.37056
G0 F10500 X102.101 Y67.189
G1 F900 X91.404 Y56.491 E66.00048
G0 F10500 X92.288 Y56.491
G1 F900 X102.748 Y66.952 E66.61645
G0 F10500 X103.426 Y66.745
G1 F900 X93.171 Y56.491 E67.22028
G0 F10500 X94.055 Y56.491
G1 F900 X104.139 Y66.574 E67.81405
G0 F10500 X104.887 Y66.439
G1 F900 X94.939 Y56.491 E68.39984
G0 F10500 X95.823 Y56.491
G1 F900 X105.680 Y66.348 E68.98027
G0 F10500 X106.524 Y66.308
G1 F900 X96.707 Y56.491 E69.55834
G0 F10500 X97.591 Y56.491
G1 F900 X107.430 Y66.330 E70.13771
G0 F10500 X108.406 Y66.422
G1 F900 X98.475 Y56.491 E70.72250
G0 F10500 X99.359 Y56.491
G1 F900 X109.496 Y66.628 E71.31941
G0 F10500 X110.731 Y66.979
G1 F900 X100.242 Y56.491 E71.93703
G0 F10500 X101.126 Y56.491
G1 F900 X112.244 Y67.608 E72.59168
G0 F10500 X114.953 Y69.434
G1 F900 X102.010 Y56.491 E73.35383
G0 F10500 X102.894 Y56.491
G1 F900 X124.363 Y77.959 E74.61800
G0 F10500 X124.363 Y77.076
G1 F900 X103.778 Y56.491 E75.83015
G0 F10500 X104.662 Y56.491
G1 F900 X124.363 Y76.192 E76.99024
G0 F10500 X124.363 Y75.308
G1 F900 X105.546 Y56.491 E78.09828
G0 F10500 X106.430 Y56.491
G1 F900 X124.363 Y74.424 E79.15426
G0 F10500 X124.363 Y73.540
G1 F900 X107.314 Y56.491 E80.15819
G0 F10500 X108.197 Y56.491
G1 F900 X124.363 Y72.656 E81.11010
G0 F10500 X124.363 Y71.772
G1 F900 X109.081 Y56.491 E82.00995
G0 F10500 X109.965 Y56.491
G1 F900 X124.363 Y70.888 E82.85774
G0 F10500 X124.363 Y70.004
G1 F900 X110.849 Y56.491 E83.65349
G0 F10500 X111.733 Y56.491
G1 F900 X124.363 Y69.121 E84.39720
G0 F10500 X124.363 Y68.237
G1 F900 X112.617 Y56.491 E85.08887
G0 F10500 X113.501 Y56.491
G1 F900 X124.363 Y67.353 E85.72847
G0 F10500 X124.363 Y66.469
G1 F900 X114.385 Y56.491 E86.31603
G0 F10500 X115.269 Y56.491
G1 F900 X124.363 Y65.585 E86.85153
G0 F10500 X124.363 Y64.701
G1 F900 X116.152 Y56.491 E87.33500
G0 F10500 X117.036 Y56.491
G1 F900 X124.363 Y63.817 E87.76642
G0 F10500 X124.363 Y62.933
G1 F900 X117.920 Y56.491 E88.14579
G0 F10500 X118.804 Y56.491
G1 F900 X124.363 Y62.050 E88.47313
G0 F10500 X124.363 Y61.166
G1 F900 X119.688 Y56.491 E88.74842
G0 F10500 X120.572 Y56.491
G1 F900 X124.363 Y60.282 E88.97165
G0 F10500 X116.083 Y70.564
G1 F900 X124.363 Y78.843 E89.45919
G0 F10500 X124.363 Y79.727
G1 F900 X117.864 Y73.228 E89.84188
G0 F10500 X118.499 Y74.747
G1 F900 X124.363 Y80.611 E90.18718
G0 F10500 X124.363 Y81.495
G1 F900 X118.849 Y75.982 E90.51185
G0 F10500 X119.049 Y77.066
G1 F900 X124.363 Y82.379 E90.82473
G0 F10500 X124.363 Y83.263
G1 F900 X119.144 Y78.044 E91.13205
G0 F10500 X119.168 Y78.952
G1 F900 X124.363 Y84.147 E91.43796
G0 F10500 X124.363 Y85.031
G1 F900 X119.124 Y79.792 E91.74646
G0 F10500 X119.034 Y80.586
G1 F900 X124.363 Y85.914 E92.06023
G0 F10500 X124.363 Y86.798
G1 F900 X118.900 Y81.335 E92.38191
G0 F10500 X118.728 Y82.047
G1 F900 X124.363 Y87.682 E92.71373
G0 F10500 X124.363 Y88.566
G1 F900 X118.523 Y82.727 E93.05759
G0 F10500 X118.287 Y83.374
G1 F900 X124.363 Y89.450 E93.41537
G0 F10500 X124.363 Y90.334
G1 F900 X118.021 Y83.992 E93.78882
G0 F10500 X117.728 Y84.583
G1 F900 X124.363 Y91.218 E94.17952
G0 F10500 X124.363 Y92.102
G1 F900 X117.410 Y85.149 E94.58895
G0 F10500 X117.069 Y85.692
G1 F900 X124.363 Y92.985 E95.01843
G0 F10500 X124.363 Y93.869
G1 F900 X116.705 Y86.211 E95.46937
G0 F10500 X116.317 Y86.708
G1 F900 X124.363 Y94.753 E95.94313
G0 F10500 X124.363 Y95.637
G1 F900 X115.907 Y87.182 E96.44103
G0 F10500 X115.473 Y87.631
G1 F900 X124.363 Y96.521 E96.96452
G0 F10500 X124.363 Y97.405
G1 F900 X115.017 Y88.060 E97.51483
G0 F10500 X114.539 Y88.466
G1 F900 X123.728 Y97.654 E98.05589
G0 F10500 X122.844 Y97.654
G1 F900 X114.040 Y88.850 E98.57431
G0 F10500 X113.516 Y89.210
G1 F900 X121.961 Y97.654 E99.07157
G0 F10500 X121.077 Y97.654
G1 F900 X112.970 Y89.548 E99.54892
G0 F10500 X112.398 Y89.860
G1 F900 X120.193 Y97.654 E100.00790
G0 F10500 X119.309 Y97.654
G1 F900 X111.802 Y90.147 E100.44995
G0 F10500 X111.178 Y90.407
G1 F900 X118.425 Y97.654 E100.87669
G0 F10500 X117.541 Y97.654
G1 F900 X110.525 Y90.638 E101.28982
G0 F10500 X109.840 Y90.837
G1 F900 X116.657 Y97.654 E101.69124
G0 F10500 X115.773 Y97.654
G1 F900 X109.121 Y91.002 E102.08295
G0 F10500 X108.362 Y91.127
G1 F900 X114.890 Y97.654 E102.46732
G0 F10500 X114.006 Y97.654
G1 F900 X107.562 Y91.211 E102.84674
G0 F10500 X106.709 Y91.242
G1 F900 X113.122 Y97.654 E103.22434
G0 F10500 X112.238 Y97.654
G1 F900 X105.790 Y91.207 E103.60400
G0 F10500 X104.793 Y91.093
G1 F900 X111.354 Y97.654 E103.99035
G0 F10500 X110.470 Y97.654
G1 F900 X103.685 Y90.869 E104.38988
G0 F10500 X102.408 Y90.477
G1 F900 X109.586 Y97.654 E104.81253
G0 F10500 X108.702 Y97.654
G1 F900 X100.806 Y89.758 E105.27748
G0 F10500 X100.747 Y97.654
G1 F900 X83.606 Y80.514 E106.28680
G0 F10500 X83.606 Y81.397
G1 F900 X99.863 Y97.654 E107.24409
G0 F10500 X98.980 Y97.654
G1 F900 X83.606 Y82.281 E108.14936
G0 F10500 X83.606 Y83.165
G1 F900 X98.096 Y97.654 E109.00258
G0 F10500 X97.212 Y97.654
G1 F900 X83.606 Y84.049 E109.80373
G0 F10500 X83.606 Y84.933
G1 F900 X96.328 Y97.654 E110.55284
G0 F10500 X95.444 Y97.654
G1 F900 X83.606 Y85.817 E111.24989
G0 F10500 X83.606 Y86.701
G1 F900 X94.560 Y97.654 E111.89489
G0 F10500 X93.676 Y97.654
G1 F900 X83.606 Y87.585 E112.48783
G0 F10500 X83.606 Y88.468
G1 F900 X92.792 Y97.654 E113.02875
G0 F10500 X91.909 Y97.654
G1 F900 X83.606 Y89.352 E113.51764
G0 F10500 X83.606 Y90.236
G1 F900 X91.025 Y97.654 E113.95448
G0 F10500 X90.178 Y97.691
G1 F900 X83.606 Y91.120 E114.34144
G0 F10500 X83.606 Y92.004
G1 F900 X90.178 Y98.575 E114.72840
G0 F10500 X90.178 Y99.459
G1 F900 X83.606 Y92.888 E115.11536
G0 F10500 X83.606 Y93.772
G1 F900 X90.178 Y100.343 E115.50233
G0 F10500 X90.178 Y101.227
G1 F900 X83.606 Y94.656 E115.88929
G0 F10500 X83.606 Y95.540
G1 F900 X90.178 Y102.111 E116.27625
G0 F10500 X90.178 Y102.995
G1 F900 X83.606 Y96.423 E116.66324
G0 F10500 X83.606 Y97.307
G1 F900 X90.178 Y103.878 E117.05021
G0 F10500 X90.178 Y104.762
G1 F900 X83.606 Y98.191 E117.43717
G0 F10500 X83.606 Y99.075
G1 F900 X90.178 Y105.646 E117.82413
G0 F10500 X90.178 Y106.530
G1 F900 X83.606 Y99.959 E118.21109
G0 F10500 X95.718 Y84.671
G1 F900 X83.606 Y72.558 E118.92434
G0 F10500 X83.606 Y73.442
G1 F900 X107.818 Y97.654 E120.35006
G0 F10500 X106.935 Y97.654
G1 F900 X83.606 Y74.326 E121.72376
G0 F10500 X83.606 Y75.209
G1 F900 X106.051 Y97.654 E123.04543
G0 F10500 X105.167 Y97.654
G1 F900 X83.606 Y76.093 E124.31505
G0 F10500 X83.606 Y76.977
G1 F900 X104.283 Y97.654 E125.53261
G0 F10500 X103.399 Y97.654
G1 F900 X83.606 Y77.861 E126.69812
G0 F10500 X83.606 Y78.745
G1 F900 X102.515 Y97.654 E127.81158
G0 F10500 X101.631 Y97.654
G1 F900 X83.606 Y79.630 E128.87295
G0 F10500 X83.606 Y71.674
G1 F900 X94.994 Y83.063 E129.54356
G0 F10500 X94.603 Y81.788
G1 F900 X83.606 Y70.790 E130.19115
G0 F10500 X83.606 Y69.906
G1 F900 X94.383 Y80.684 E130.82578
G0 F10500 X94.267 Y79.684
G1 F900 X83.606 Y69.022 E131.45358
G0 F10500 X83.606 Y68.138
G1 F900 X94.234 Y78.767 E132.07944
G0 F10500 X94.265 Y77.914
G1 F900 X83.606 Y67.255 E132.70710
G0 F10500 X83.606 Y66.371
G1 F900 X94.347 Y77.112 E133.33958
G0 F10500 X94.473 Y76.354
G1 F900 X83.606 Y65.487 E133.97948
G0 F10500 X83.606 Y64.603
G1 F900 X94.636 Y75.633 E134.62898
G0 F10500 X94.835 Y74.949
G1 F900 X83.606 Y63.719 E135.29023
G0 F10500 X83.606 Y62.835
G1 F900 X95.066 Y74.296 E135.96508
G0 F10500 X95.327 Y73.672
G1 F900 X83.606 Y61.951 E136.65527
G0 F10500 X83.606 Y61.067
G1 F900 X95.614 Y73.076 E137.36239
G0 F10500 X95.928 Y72.506
G1 F900 X83.606 Y60.183 E138.08800
G0 F10500 X83.606 Y59.300
G1 F900 X96.265 Y71.959 E138.83343
G0 F10500 X96.626 Y71.436
G1 F900 X83.606 Y58.416 E139.60011
G0 F10500 X83.606 Y57.532
G1 F900 X97.010 Y70.936 E140.38940
G0 F10500 X97.416 Y70.458
G1 F900 X83.606 Y56.648 E141.20261
G0 F10500 X83.606 Y55.764
G1 F900 X97.843 Y70.002 E142.04098
G0 F10500 X98.294 Y69.568
G1 F900 X83.573 Y54.848 E142.90780
G0 F10500 X83.268 Y53.658
G1 F900 X98.765 Y69.155 E143.82034
G0 F10500 X99.260 Y68.766
G1 F900 X75.816 Y45.323 E145.20081
G0 F10500 X74.932 Y45.323
G1 F900 X81.104 Y51.495 E145.56424
G0 F10500 X81.119 Y45.323
G1 F900 X89.479 Y53.682 E146.05649
G0 F10500 X89.479 Y54.566
G1 F900 X80.236 Y45.323 E146.60077
G0 F10500 X79.352 Y45.323
G1 F900 X89.479 Y55.450 E147.19709
G0 F10500 X89.479 Y52.798
G1 F900 X82.003 Y45.323 E147.63729
G0 F10500 X82.887 Y45.323
G1 F900 X89.479 Y51.915 E148.02546
G0 F10500 X89.479 Y51.031
G1 F900 X83.771 Y45.323 E148.36157
G0 F10500 X84.655 Y45.323
G1 F900 X89.479 Y50.147 E148.64563
G0 F10500 X89.479 Y49.263
G1 F900 X85.539 Y45.323 E148.87764
G0 F10500 X86.423 Y45.323
G1 F900 X89.479 Y48.379 E149.05759
G0 F10500 X89.479 Y47.495
G1 F900 X87.307 Y45.323 E149.18549
G0 F10500 X88.191 Y45.323
G1 F900 X89.479 Y46.611 E149.26134
G0 F10500 X89.479 Y45.727
G1 F900 X89.074 Y45.323 E149.28515
G0 F10500 X79.914 Y51.188
G1 F900 X74.048 Y45.323 E149.63054
G0 F10500 X73.165 Y45.323
G1 F900 X79.009 Y51.168 E149.97470
G0 F10500 X78.126 Y51.168
G1 F900 X72.281 Y45.323 E150.31888
G0 F10500 X71.397 Y45.323
G1 F900 X77.242 Y51.168 E150.66306
G0 F10500 X76.358 Y51.168
G1 F900 X70.513 Y45.323 E151.00724
G0 F10500 X69.629 Y45.323
G1 F900 X75.474 Y51.168 E151.35143
G0 F10500 X74.590 Y51.168
G1 F900 X68.745 Y45.323 E151.69561
G0 F10500 X67.861 Y45.323
G1 F900 X73.706 Y51.168 E152.03979
G0 F10500 X72.822 Y51.168
G1 F900 X66.977 Y45.323 E152.38398
G0 F10500 X66.093 Y45.323
G1 F900 X71.938 Y51.168 E152.72816
G0 F10500 X71.055 Y51.168
G1 F900 X65.210 Y45.323 E153.07234
G0 F10500 X64.326 Y45.323
G1 F900 X70.171 Y51.168 E153.41652
G0 F10500 X69.287 Y51.168
G1 F900 X63.442 Y45.323 E153.76071
G0 F10500 X62.557 Y45.322
G1 F900 X68.403 Y51.168 E154.10495
G0 F10500 X67.519 Y51.168
G1 F900 X61.673 Y45.322 E154.44919
G0 F10500 X60.789 Y45.322
G1 F900 X66.635 Y51.168 E154.79343
G0 F10500 X65.751 Y51.168
G1 F900 X59.906 Y45.322 E155.13764
G0 F10500 X59.022 Y45.322
G1 F900 X64.867 Y51.168 E155.48185
G0 F10500 X63.983 Y51.168
G1 F900 X58.138 Y45.322 E155.82607
G0 F10500 X57.254 Y45.322
G1 F900 X63.100 Y51.168 E156.17031
G0 F10500 X62.216 Y51.168
G1 F900 X56.370 Y45.322 E156.51455
G0 F10500 X55.486 Y45.322
G1 F900 X61.332 Y51.168 E156.85879
G0 F10500 X60.448 Y51.168
G1 F900 X54.602 Y45.322 E157.20303
G0 F10500 X53.718 Y45.322
G1 F900 X59.564 Y51.168 E157.54727
G0 F10500 X58.680 Y51.168
G1 F900 X52.835 Y45.322 E157.89148
G0 F10500 X51.951 Y45.322
G1 F900 X57.796 Y51.168 E158.23570
G0 F10500 X56.912 Y51.168
G1 F900 X51.067 Y45.322 E158.57991
G0 F10500 X50.183 Y45.322
G1 F900 X56.029 Y51.168 E158.92415
G0 F10500 X55.145 Y51.168
G1 F900 X49.299 Y45.322 E159.26839
G0 F10500 X48.415 Y45.322
G1 F900 X54.261 Y51.168 E159.61263
G0 F10500 X53.377 Y51.168
G1 F900 X47.531 Y45.322 E159.95687
G0 F10500 X46.647 Y45.322
G1 F900 X52.493 Y51.168 E160.30112
G0 F10500 X51.609 Y51.168
G1 F900 X45.763 Y45.322 E160.64536
G0 F10500 X44.880 Y45.322
G1 F900 X50.725 Y51.168 E160.98957
G0 F10500 X49.841 Y51.168
G1 F900 X43.996 Y45.322 E161.33378
G0 F10500 X43.112 Y45.322
G1 F900 X48.957 Y51.168 E161.67799
G0 F10500 X48.074 Y51.168
G1 F900 X42.228 Y45.322 E162.02224
G0 F10500 X41.344 Y45.322
G1 F900 X47.190 Y51.168 E162.36648
G0 F10500 X46.306 Y51.168
G1 F900 X40.460 Y45.322 E162.71072
G0 F10500 X39.576 Y45.322
G1 F900 X45.422 Y51.168 E163.05496
G0 F10500 X44.547 Y51.176
G1 F900 X38.692 Y45.322 E163.39970
G0 F10500 X37.808 Y45.322
G1 F900 X43.769 Y51.282 E163.75069
G0 F10500 X43.099 Y51.497
G1 F900 X36.925 Y45.322 E164.11427
G0 F10500 X36.041 Y45.322
G1 F900 X42.523 Y51.805 E164.49599
G0 F10500 X42.016 Y52.182
G1 F900 X35.636 Y45.801 E164.87171
G0 F10500 X35.636 Y46.685
G1 F900 X41.572 Y52.621 E165.22125
G0 F10500 X41.204 Y53.137
G1 F900 X35.636 Y47.569 E165.54912
G0 F10500 X35.636 Y48.453
G1 F900 X40.905 Y53.722 E165.85938
G0 F10500 X40.696 Y54.397
G1 F900 X35.636 Y49.336 E166.15737
G0 F10500 X35.636 Y50.220
G1 F900 X40.599 Y55.184 E166.44965
G0 F10500 X40.597 Y56.065
G1 F900 X35.636 Y51.104 E166.74178
G0 F10500 X35.636 Y51.988
G1 F900 X40.597 Y56.949 E167.03390
G0 F10500 X40.597 Y57.833
G1 F900 X35.636 Y52.872 E167.32603
G0 F10500 X35.636 Y53.756
G1 F900 X40.597 Y58.717 E167.61816
G0 F10500 X40.597 Y59.601
G1 F900 X35.636 Y54.640 E167.91029
G0 F10500 X35.636 Y55.524
G1 F900 X40.597 Y60.485 E168.20242
G0 F10500 X40.597 Y61.369
G1 F900 X35.636 Y56.408 E168.49455
G0 F10500 X35.636 Y57.291
G1 F900 X40.597 Y62.252 E168.78667
G0 F10500 X40.597 Y63.136
G1 F900 X35.636 Y58.175 E169.07880
G0 F10500 X35.636 Y59.059
G1 F900 X40.597 Y64.020 E169.37093
G0 F10500 X40.597 Y64.904
G1 F900 X35.636 Y59.943 E169.66306
G0 F10500 X35.636 Y60.827
G1 F900 X40.597 Y65.788 E169.95519
G0 F10500 X40.597 Y66.672
G1 F900 X35.636 Y61.711 E170.24731
G0 F10500 X35.636 Y62.595
G1 F900 X40.597 Y67.556 E170.53944
G0 F10500 X40.597 Y68.440
G1 F900 X35.636 Y63.479 E170.83157
G0 F10500 X35.636 Y64.362
G1 F900 X40.597 Y69.324 E171.12373
G0 F10500 X40.597 Y70.207
G1 F900 X35.636 Y65.246 E171.41586
G0 F10500 X35.636 Y66.130
G1 F900 X40.597 Y71.091 E171.70799
G0 F10500 X40.597 Y71.975
G1 F900 X35.636 Y67.014 E172.00011
G0 F10500 X35.636 Y67.898
G1 F900 X40.597 Y72.859 E172.29224
G0 F10500 X40.597 Y73.743
G1 F900 X35.636 Y68.782 E172.58437
G0 F10500 X35.636 Y69.666
G1 F900 X40.597 Y74.627 E172.87650
G0 F10500 X40.597 Y75.511
G1 F900 X35.636 Y70.550 E173.16863
G0 F10500 X35.636 Y71.434
G1 F900 X40.597 Y76.395 E173.46076
G0 F10500 X40.597 Y77.278
G1 F900 X35.636 Y72.317 E173.75288
G0 F10500 X35.636 Y73.201
G1 F900 X40.597 Y78.162 E174.04501
G0 F10500 X40.597 Y79.046
G1 F900 X35.636 Y74.085 E174.33714
G0 F10500 X35.636 Y74.969
G1 F900 X40.597 Y79.930 E174.62927
G0 F10500 X40.597 Y80.814
G1 F900 X35.636 Y75.853 E174.92140
G0 F10500 X35.636 Y76.737
G1 F900 X40.597 Y81.698 E175.21352
G0 F10500 X40.597 Y82.582
G1 F900 X35.636 Y77.621 E175.50565
G0 F10500 X35.636 Y78.505
G1 F900 X40.597 Y83.466 E175.79778
G0 F10500 X40.597 Y84.350
G1 F900 X35.636 Y79.388 E176.08994
G0 F10500 X35.636 Y80.272
G1 F900 X40.597 Y85.233 E176.38207
G0 F10500 X40.597 Y86.117
G1 F900 X35.636 Y81.156 E176.67420
G0 F10500 X35.636 Y82.040
G1 F900 X40.597 Y87.001 E176.96632
G0 F10500 X40.597 Y87.885
G1 F900 X35.636 Y82.924 E177.25845
G0 F10500 X35.636 Y83.808
G1 F900 X40.597 Y88.769 E177.55058
G0 F10500 X40.597 Y89.653
G1 F900 X35.636 Y84.692 E177.84271
G0 F10500 X35.636 Y85.576
G1 F900 X40.597 Y90.537 E178.13484
G0 F10500 X40.597 Y91.421
G1 F900 X35.636 Y86.460 E178.42697
G0 F10500 X35.636 Y87.343
G1 F900 X40.597 Y92.305 E178.71912
G0 F10500 X40.597 Y93.188
G1 F900 X35.636 Y88.227 E179.01125
G0 F10500 X35.636 Y89.111
G1 F900 X40.597 Y94.072 E179.30338
G0 F10500 X40.597 Y94.956
G1 F900 X35.636 Y89.995 E179.59551
G0 F10500 X35.636 Y90.879
G1 F900 X40.597 Y95.840 E179.88764
G0 F10500 X40.597 Y96.724
G1 F900 X35.636 Y91.763 E180.17976
G0 F10500 X35.636 Y92.647
G1 F900 X40.597 Y97.608 E180.47189
G0 F10500 X40.597 Y98.492
G1 F900 X35.636 Y93.531 E180.76402
G0 F10500 X35.636 Y94.415
G1 F900 X40.597 Y99.376 E181.05615
G0 F10500 X40.597 Y100.259
G1 F900 X35.636 Y95.298 E181.34828
G0 F10500 X35.636 Y96.182
G1 F900 X40.597 Y101.143 E181.64041
G0 F10500 X40.597 Y102.027
G1 F900 X35.636 Y97.066 E181.93253
G0 F10500 X35.636 Y97.950
G1 F900 X40.650 Y102.965 E182.22781
G0 F10500 X41.207 Y104.405
G1 F900 X35.636 Y98.834 E182.55586
G0 F10500 X35.636 Y99.718
G1 F900 X46.593 Y110.675 E183.20106
G0 F10500 X45.709 Y110.675
G1 F900 X35.636 Y100.602 E183.79421
G0 F10500 X35.636 Y101.486
G1 F900 X44.825 Y110.675 E184.33530
G0 F10500 X43.941 Y110.675
G1 F900 X35.636 Y102.369 E184.82437
G0 F10500 X35.636 Y103.253
G1 F900 X43.057 Y110.675 E185.26139
G0 F10500 X42.173 Y110.675
G1 F900 X35.636 Y104.137 E185.64635
G0 F10500 X35.636 Y105.021
G1 F900 X41.290 Y110.675 E185.97928
G0 F10500 X40.406 Y110.675
G1 F900 X35.636 Y105.905 E186.26017
G0 F10500 X35.636 Y106.789
G1 F900 X39.522 Y110.675 E186.48899
G0 F10500 X38.638 Y110.675
G1 F900 X35.636 Y107.673 E186.66577
G0 F10500 X35.636 Y108.557
G1 F900 X37.754 Y110.675 E186.79048
G0 F10500 X36.870 Y110.675
G1 F900 X35.636 Y109.441 E186.86315
G0 F10500 X35.636 Y110.324
G1 F900 X35.986 Y110.675 E186.88379
G0 F10500 X42.582 Y105.781
G1 F900 X47.477 Y110.675 E187.17200
G0 F10500 X48.361 Y110.675
G1 F900 X43.992 Y106.307 E187.42924
G0 F10500 X44.948 Y106.379
G1 F900 X49.245 Y110.675 E187.68224
G0 F10500 X50.128 Y110.675
G1 F900 X45.832 Y106.379 E187.93521
G0 F10500 X46.716 Y106.379
G1 F900 X51.012 Y110.675 E188.18818
G0 F10500 X51.896 Y110.675
G1 F900 X47.600 Y106.379 E188.44115
G0 F10500 X48.484 Y106.379
G1 F900 X52.780 Y110.675 E188.69412
G0 F10500 X53.664 Y110.675
G1 F900 X49.368 Y106.379 E188.94709
G0 F10500 X50.251 Y106.379
G1 F900 X54.548 Y110.675 E189.20009
G0 F10500 X55.432 Y110.675
G1 F900 X51.135 Y106.379 E189.45308
G0 F10500 X52.019 Y106.379
G1 F900 X56.316 Y110.675 E189.70608
G0 F10500 X57.199 Y110.675
G1 F900 X52.903 Y106.379 E189.95905
G0 F10500 X53.787 Y106.379
G1 F900 X58.083 Y110.675 E190.21202
G0 F10500 X58.967 Y110.675
G1 F900 X54.671 Y106.379 E190.46499
G0 F10500 X55.555 Y106.379
G1 F900 X59.851 Y110.675 E190.71796
G0 F10500 X60.735 Y110.675
G1 F900 X56.439 Y106.379 E190.97093
G0 F10500 X57.323 Y106.379
G1 F900 X61.619 Y110.675 E191.22390
G0 F10500 X62.503 Y110.675
G1 F900 X58.206 Y106.379 E191.47690
G0 F10500 X59.090 Y106.379
G1 F900 X63.387 Y110.675 E191.72990
G0 F10500 X64.271 Y110.675
G1 F900 X59.974 Y106.379 E191.98290
G0 F10500 X60.858 Y106.379
G1 F900 X65.154 Y110.675 E192.23587
G0 F10500 X66.038 Y110.675
G1 F900 X61.742 Y106.379 E192.48884
G0 F10500 X62.626 Y106.379
G1 F900 X66.922 Y110.675 E192.74181
G0 F10500 X67.806 Y110.675
G1 F900 X63.510 Y106.379 E192.99478
G0 F10500 X64.394 Y106.379
G1 F900 X68.690 Y110.675 E193.24775
G0 F10500 X69.574 Y110.675
G1 F900 X65.277 Y106.379 E193.50075
G0 F10500 X66.161 Y106.379
G1 F900 X70.458 Y110.675 E193.75375
G0 F10500 X71.342 Y110.675
G1 F900 X67.045 Y106.379 E194.00675
G0 F10500 X67.929 Y106.379
G1 F900 X72.226 Y110.675 E194.25975
G0 F10500 X73.109 Y110.675
G1 F900 X68.813 Y106.379 E194.51272
G0 F10500 X69.697 Y106.379
G1 F900 X73.993 Y110.675 E194.76569
G0 F10500 X74.877 Y110.675
G1 F900 X70.581 Y106.379 E195.01865
G0 F10500 X71.465 Y106.379
G1 F900 X75.761 Y110.675 E195.27162
G0 F10500 X76.645 Y110.675
G1 F900 X72.349 Y106.379 E195.52459
G0 F10500 X73.232 Y106.379
G1 F900 X77.529 Y110.675 E195.77759
G0 F10500 X78.413 Y110.675
G1 F900 X74.116 Y106.379 E196.03059
G0 F10500 X75.000 Y106.379
G1 F900 X79.297 Y110.675 E196.28359
G0 F10500 X80.180 Y110.675
G1 F900 X75.884 Y106.379 E196.53656
G0 F10500 X76.768 Y106.379
G1 F900 X81.064 Y110.675 E196.78953
G0 F10500 X81.948 Y110.675
G1 F900 X77.652 Y106.379 E197.04250
G0 F10500 X78.536 Y106.379
G1 F900 X82.832 Y110.675 E197.29547
G0 F10500 X83.716 Y110.675
G1 F900 X79.420 Y106.379 E197.54844
G0 F10500 X80.239 Y106.314
G1 F900 X84.600 Y110.675 E197.80524
G0 F10500 X85.484 Y110.675
G1 F900 X80.931 Y106.123 E198.07331
G0 F10500 X81.526 Y105.834
G1 F900 X86.368 Y110.675 E198.35840
G0 F10500 X87.252 Y110.675
G1 F900 X82.056 Y105.480 E198.66434
G0 F10500 X82.516 Y105.056
G1 F900 X88.135 Y110.675 E198.99521
G0 F10500 X89.019 Y110.675
G1 F900 X82.911 Y104.566 E199.35491
G0 F10500 X83.230 Y104.002
G1 F900 X89.903 Y110.675 E199.74785
G0 F10500 X90.178 Y110.066
G1 F900 X83.467 Y103.355 E200.14303
G0 F10500 X83.594 Y102.598
G1 F900 X90.178 Y109.182 E200.53073
G0 F10500 X90.178 Y108.298
G1 F900 X83.606 Y101.727 E200.91769
G0 F10500 X83.606 Y100.843
G1 F900 X90.178 Y107.414 E201.30465
G0 F10500 X90.568 Y98.046
G0 X95.422 Y74.293
G0 X97.513 Y70.847
G0 X99.781 Y68.404
G1 F900 X76.700 Y45.323 E202.66378
G0 F10500 X89.870 Y56.101
G0 X121.456 Y56.491
G1 F900 X124.363 Y59.398 E202.83496
G0 F10500 X124.363 Y58.514
G1 F900 X122.340 Y56.491 E202.95408
G0 F10500 X123.223 Y56.491
G1 F900 X124.363 Y57.630 E203.02118
G0 F10500 X124.363 Y56.746
G1 F900 X124.107 Y56.491 E203.03622
;LAYER:1
M106 S255
G0 F10500 X124.770 Y56.085 Z0.675
;TYPE:WALL-INNER
G1 F1140 X124.770 Y98.062 E203.85874
G1 X90.584 Y98.062 E204.52859
G1 X90.584 Y111.083 E204.78372
G1 X35.230 Y111.083 E205.86835
G1 X35.230 Y44.917 E207.16483
G1 X89.886 Y44.917 E208.23578
G1 X89.886 Y56.085 E208.45461
G1 X124.770 Y56.085 E209.13813
G0 F10500 X114.189 Y69.795
G1 F1140 X113.678 Y69.393 E209.15087
G1 X113.147 Y69.020 E209.16359
G1 X112.594 Y68.676 E209.17635
G1 X112.024 Y68.365 E209.18907
G1 X111.437 Y68.085 E209.20182
G1 X110.835 Y67.838 E209.21457
G1 X110.222 Y67.626 E209.22728
G1 X109.597 Y67.447 E209.24001
G1 X108.962 Y67.304 E209.25277
G1 X108.321 Y67.196 E209.26551
G1 X107.676 Y67.123 E209.27822
G1 X107.028 Y67.087 E209.29094
G1 X106.827 Y67.086 E209.29488
G1 X106.190 Y67.096 E209.30736
G1 X105.542 Y67.143 E209.32009
G1 X104.898 Y67.226 E209.33282
G1 X104.258 Y67.343 E209.34556
G1 X103.627 Y67.497 E209.35829
G1 X103.004 Y67.685 E209.37104
G1 X102.394 Y67.909 E209.38378
G1 X101.797 Y68.164 E209.39650
G1 X101.221 Y68.451 E209.40911
G1 X100.808 Y68.676 E209.41832
G1 X100.257 Y69.020 E209.43105
G1 X99.725 Y69.393 E209.44378
G1 X99.214 Y69.795 E209.45652
G1 X98.726 Y70.225 E209.46926
G1 X98.264 Y70.681 E209.48198
G1 X97.826 Y71.163 E209.49474
G1 X97.418 Y71.668 E209.50747
G1 X97.037 Y72.194 E209.52019
G1 X96.686 Y72.742 E209.53294
G1 X96.367 Y73.308 E209.54567
G1 X96.078 Y73.892 E209.55844
G1 X95.824 Y74.489 E209.57115
G1 X95.602 Y75.100 E209.58389
G1 X95.416 Y75.723 E209.59663
G1 X95.263 Y76.354 E209.60935
G1 X95.145 Y76.995 E209.62213
G1 X95.065 Y77.640 E209.63486
G1 X95.019 Y78.286 E209.64755
G1 X95.011 Y78.935 E209.66027
G1 X95.038 Y79.585 E209.67302
G1 X95.102 Y80.233 E209.68577
G1 X95.201 Y80.878 E209.69856
G1 X95.335 Y81.511 E209.71124
G1 X95.504 Y82.138 E209.72396
G1 X95.708 Y82.755 E209.73670
G1 X95.947 Y83.360 E209.74944
G1 X96.218 Y83.950 E209.76216
G1 X96.523 Y84.526 E209.77493
G1 X96.857 Y85.082 E209.78764
G1 X97.224 Y85.621 E209.80042
G1 X97.619 Y86.136 E209.81314
G1 X98.042 Y86.629 E209.82587
G1 X98.492 Y87.098 E209.83860
G1 X98.967 Y87.543 E209.85136
G1 X99.467 Y87.958 E209.86409
G1 X99.988 Y88.346 E209.87682
G1 X100.531 Y88.704 E209.88956
G1 X101.092 Y89.032 E209.90229
G1 X101.671 Y89.328 E209.91504
G1 X102.266 Y89.591 E209.92778
G1 X102.873 Y89.821 E209.94050
G1 X103.492 Y90.017 E209.95322
G1 X104.124 Y90.179 E209.96601
G1 X104.762 Y90.304 E209.97875
G1 X105.405 Y90.394 E209.99147
G1 X106.053 Y90.448 E210.00421
G1 X106.702 Y90.466 E210.01693
G1 X107.351 Y90.448 E210.02965
G1 X107.998 Y90.394 E210.04237
G1 X108.642 Y90.304 E210.05512
G1 X109.280 Y90.179 E210.06786
G1 X109.911 Y90.017 E210.08062
G1 X110.530 Y89.821 E210.09334
G1 X111.137 Y89.591 E210.10606
G1 X111.733 Y89.328 E210.11883
G1 X112.311 Y89.032 E210.13155
G1 X112.873 Y88.704 E210.14430
G1 X113.415 Y88.346 E210.15703
G1 X113.936 Y87.959 E210.16975
G1 X114.436 Y87.543 E210.18249
G1 X114.912 Y87.098 E210.19526
G1 X115.362 Y86.629 E210.20799
G1 X115.784 Y86.136 E210.22071
G1 X116.180 Y85.621 E210.23344
G1 X116.546 Y85.081 E210.24622
G1 X116.880 Y84.526 E210.25891
G1 X117.184 Y83.951 E210.27166
G1 X117.457 Y83.360 E210.28441
G1 X117.694 Y82.755 E210.29715
G1 X117.900 Y82.138 E210.30989
G1 X118.068 Y81.512 E210.32259
G1 X118.203 Y80.879 E210.33527
G1 X118.303 Y80.234 E210.34806
G1 X118.365 Y79.585 E210.36084
G1 X118.393 Y78.935 E210.37359
G1 X118.384 Y78.286 E210.38630
G1 X118.339 Y77.640 E210.39899
G1 X118.258 Y76.995 E210.41173
G1 X118.141 Y76.355 E210.42448
G1 X117.988 Y75.723 E210.43722
G1 X117.801 Y75.100 E210.44996
G1 X117.580 Y74.489 E210.46270
G1 X117.326 Y73.892 E210.47541
G1 X117.037 Y73.308 E210.48818
G1 X116.718 Y72.742 E210.50091
G1 X116.367 Y72.194 E210.51366
G1 X115.986 Y71.668 E210.52638
G1 X115.576 Y71.162 E210.53915
G1 X115.142 Y70.681 E210.55184
G1 X114.677 Y70.225 E210.56460
G1 X114.189 Y69.795 E210.57735
G0 F10500 X110.207 Y67.674
G0 X82.875 Y59.032
G1 F1140 X82.880 Y55.243 E210.65159
G1 X82.833 Y54.690 E210.66246
G1 X82.682 Y54.124 E210.67394
G1 X82.421 Y53.570 E210.68594
G1 X82.093 Y53.101 E210.69716
G1 X81.669 Y52.678 E210.70889
G1 X81.068 Y52.278 E210.72304
G1 X80.650 Y52.095 E210.73198
G1 X80.106 Y51.948 E210.74302
G1 X79.796 Y51.907 E210.74915
G1 X79.517 Y51.896 E210.75462
G1 X76.915 Y51.901 E210.80560
G1 X75.454 Y51.899 E210.83423
G1 X50.852 Y51.898 E211.31629
G1 X48.634 Y51.902 E211.35975
G1 X44.672 Y51.896 E211.43738
G1 X44.107 Y51.944 E211.44849
G1 X43.406 Y52.152 E211.46282
G1 X42.870 Y52.433 E211.47468
G1 X42.317 Y52.877 E211.48857
G1 X41.932 Y53.335 E211.50030
G1 X41.646 Y53.831 E211.51152
G1 X41.520 Y54.134 E211.51795
G1 X41.376 Y54.672 E211.52886
G1 X41.335 Y54.982 E211.53499
G1 X41.324 Y55.261 E211.54046
G1 X41.329 Y59.029 E211.61429
G1 X41.326 Y67.025 E211.77097
G1 X41.330 Y98.517 E212.38803
G1 X41.324 Y102.305 E212.46225
G1 X41.372 Y102.870 E212.47336
G1 X41.580 Y103.572 E212.48771
G1 X41.853 Y104.091 E212.49920
G1 X42.118 Y104.453 E212.50799
G1 X42.518 Y104.854 E212.51909
G1 X42.786 Y105.058 E212.52569
G1 X43.403 Y105.394 E212.53946
G1 X43.836 Y105.542 E212.54842
G1 X44.393 Y105.640 E212.55950
G1 X44.689 Y105.652 E212.56531
G1 X48.410 Y105.648 E212.63822
G1 X56.303 Y105.651 E212.79288
G1 X75.794 Y105.647 E213.17479
G1 X79.535 Y105.652 E213.24809
G1 X80.089 Y105.605 E213.25899
G1 X80.652 Y105.454 E213.27041
G1 X81.207 Y105.193 E213.28243
G1 X81.676 Y104.865 E213.29364
G1 X82.080 Y104.461 E213.30483
G1 X82.282 Y104.196 E213.31136
G1 X82.559 Y103.718 E213.32219
G1 X82.685 Y103.413 E213.32865
G1 X82.828 Y102.876 E213.33954
G1 X82.869 Y102.567 E213.34565
G1 X82.880 Y102.288 E213.35112
G1 X82.876 Y98.520 E213.42495
G1 X82.879 Y90.524 E213.58163
G1 X82.875 Y59.032 E214.19869
G0 F10500 X82.729 Y55.265
G0 X82.380 Y55.264
;TYPE:WALL-OUTER
G1 F1080 X82.338 Y54.776 E214.20829
G1 X82.209 Y54.292 E214.21811
G1 X81.993 Y53.830 E214.22810
G1 X81.708 Y53.424 E214.23782
G1 X81.351 Y53.067 E214.24771
G1 X80.827 Y52.719 E214.26004
G1 X80.483 Y52.568 E214.26740
G1 X80.008 Y52.439 E214.27704
G1 X79.753 Y52.406 E214.28208
G1 X44.692 Y52.396 E214.96908
G1 X44.200 Y52.438 E214.97875
G1 X43.595 Y52.617 E214.99112
G1 X43.145 Y52.853 E215.00107
G1 X42.668 Y53.236 E215.01306
G1 X42.343 Y53.623 E215.02296
G1 X42.095 Y54.053 E215.03269
G1 X41.995 Y54.295 E215.03782
G1 X41.867 Y54.770 E215.04746
G1 X41.834 Y55.025 E215.05250
G1 X41.824 Y102.285 E215.97852
G1 X41.866 Y102.777 E215.98820
G1 X42.045 Y103.383 E216.00058
G1 X42.278 Y103.826 E216.01039
G1 X42.499 Y104.127 E216.01771
G1 X42.848 Y104.477 E216.02739
G1 X43.059 Y104.637 E216.03258
G1 X43.604 Y104.935 E216.04475
G1 X43.961 Y105.056 E216.05214
G1 X44.447 Y105.142 E216.06181
G1 X79.514 Y105.152 E216.74892
G1 X80.002 Y105.110 E216.75852
G1 X80.484 Y104.981 E216.76830
G1 X80.946 Y104.765 E216.77829
G1 X81.353 Y104.480 E216.78803
G1 X81.704 Y104.130 E216.79774
G1 X81.864 Y103.920 E216.80291
G1 X82.110 Y103.496 E216.81252
G1 X82.210 Y103.252 E216.81768
G1 X82.337 Y102.779 E216.82728
G1 X82.370 Y102.524 E216.83232
G1 X82.380 Y55.264 E217.75835
G0 F10500 X82.729 Y55.265
G0 X90.036 Y55.585
G0 X90.386 Y55.585
G1 F1080 X125.270 Y55.585 E218.44187
G1 X125.270 Y98.562 E219.28398
G1 X91.084 Y98.562 E219.95383
G1 X91.084 Y111.583 E220.20897
G1 X34.730 Y111.583 E221.31319
G1 X34.730 Y44.417 E222.62926
G1 X90.386 Y44.417 E223.71980
G1 X90.386 Y55.585 E223.93863
G0 F10500 X90.036 Y55.585
G0 X89.995 Y55.976
G0 X99.805 Y69.521
G0 X100.023 Y69.794
G1 F1080 X99.535 Y70.179 E223.95081
G1 X99.067 Y70.591 E223.96303
G1 X98.625 Y71.028 E223.97521
G1 X98.206 Y71.488 E223.98740
G1 X97.815 Y71.972 E223.99959
G1 X97.450 Y72.476 E224.01178
G1 X97.115 Y73.000 E224.02397
G1 X96.809 Y73.542 E224.03617
G1 X96.533 Y74.101 E224.04838
G1 X96.289 Y74.672 E224.06055
G1 X96.077 Y75.257 E224.07274
G1 X95.899 Y75.854 E224.08495
G1 X95.752 Y76.458 E224.09713
G1 X95.640 Y77.071 E224.10934
G1 X95.563 Y77.689 E224.12154
G1 X95.519 Y78.307 E224.13368
G1 X95.511 Y78.928 E224.14585
G1 X95.537 Y79.550 E224.15805
G1 X95.598 Y80.170 E224.17026
G1 X95.693 Y80.788 E224.18251
G1 X95.821 Y81.394 E224.19464
G1 X95.983 Y81.994 E224.20682
G1 X96.179 Y82.585 E224.21902
G1 X96.407 Y83.164 E224.23122
G1 X96.667 Y83.729 E224.24340
G1 X96.958 Y84.280 E224.25561
G1 X97.278 Y84.812 E224.26778
G1 X97.629 Y85.328 E224.28000
G1 X98.008 Y85.821 E224.29219
G1 X98.413 Y86.293 E224.30438
G1 X98.843 Y86.742 E224.31656
G1 X99.298 Y87.168 E224.32877
G1 X99.776 Y87.565 E224.34095
G1 X100.275 Y87.937 E224.35314
G1 X100.795 Y88.279 E224.36534
G1 X101.332 Y88.593 E224.37753
G1 X101.886 Y88.877 E224.38972
G1 X102.455 Y89.128 E224.40191
G1 X103.037 Y89.348 E224.41410
G1 X103.630 Y89.536 E224.42629
G1 X104.234 Y89.691 E224.43851
G1 X104.845 Y89.811 E224.45071
G1 X105.460 Y89.897 E224.46288
G1 X106.081 Y89.949 E224.47509
G1 X106.702 Y89.966 E224.48726
G1 X107.323 Y89.949 E224.49943
G1 X107.943 Y89.897 E224.51162
G1 X108.559 Y89.811 E224.52381
G1 X109.170 Y89.691 E224.53601
G1 X109.773 Y89.536 E224.54821
G1 X110.366 Y89.348 E224.56040
G1 X110.948 Y89.128 E224.57259
G1 X111.518 Y88.877 E224.58480
G1 X112.071 Y88.593 E224.59698
G1 X112.609 Y88.279 E224.60918
G1 X113.128 Y87.937 E224.62136
G1 X113.627 Y87.566 E224.63355
G1 X114.105 Y87.168 E224.64573
G1 X114.561 Y86.742 E224.65796
G1 X114.991 Y86.293 E224.67014
G1 X115.395 Y85.821 E224.68232
G1 X115.775 Y85.328 E224.69451
G1 X116.125 Y84.812 E224.70673
G1 X116.445 Y84.280 E224.71890
G1 X116.736 Y83.729 E224.73110
G1 X116.997 Y83.164 E224.74330
G1 X117.224 Y82.585 E224.75549
G1 X117.421 Y81.994 E224.76769
G1 X117.582 Y81.395 E224.77985
G1 X117.711 Y80.788 E224.79201
G1 X117.807 Y80.171 E224.80424
G1 X117.866 Y79.550 E224.81646
G1 X117.893 Y78.928 E224.82866
G1 X117.884 Y78.307 E224.84083
G1 X117.841 Y77.689 E224.85297
G1 X117.763 Y77.071 E224.86518
G1 X117.652 Y76.458 E224.87738
G1 X117.505 Y75.854 E224.88956
G1 X117.326 Y75.257 E224.90178
G1 X117.115 Y74.672 E224.91396
G1 X116.871 Y74.101 E224.92613
G1 X116.595 Y73.542 E224.93834
G1 X116.289 Y73.000 E224.95054
G1 X115.954 Y72.476 E224.96273
G1 X115.589 Y71.972 E224.97492
G1 X115.196 Y71.487 E224.98715
G1 X114.781 Y71.027 E224.99929
G1 X114.336 Y70.591 E225.01150
G1 X113.869 Y70.179 E225.02370
G1 X113.380 Y69.794 E225.03589
G1 X112.871 Y69.437 E225.04808
G1 X112.342 Y69.108 E225.06028
G1 X111.797 Y68.810 E225.07245
G1 X111.234 Y68.542 E225.08467
G1 X110.658 Y68.306 E225.09687
G1 X110.071 Y68.103 E225.10904
G1 X109.473 Y67.932 E225.12123
G1 X108.865 Y67.795 E225.13344
G1 X108.252 Y67.691 E225.14562
G1 X107.634 Y67.622 E225.15781
G1 X107.013 Y67.587 E225.16999
G1 X106.830 Y67.586 E225.17358
G1 X106.212 Y67.596 E225.18569
G1 X105.592 Y67.641 E225.19787
G1 X104.975 Y67.720 E225.21006
G1 X104.363 Y67.832 E225.22225
G1 X103.758 Y67.980 E225.23445
G1 X103.163 Y68.160 E225.24663
G1 X102.579 Y68.374 E225.25882
G1 X102.007 Y68.618 E225.27101
G1 X101.452 Y68.894 E225.28315
G1 X100.533 Y69.437 E225.30407
G1 X100.023 Y69.794 E225.31627
G0 F10500 X99.805 Y69.521
G0 X100.956 Y68.395
;TYPE:SKIN
G1 F1080 X113.092 Y56.259 E225.65256
G0 F10500 X113.799 Y56.259
G1 F1080 X102.300 Y67.758 E225.97120
G0 F10500 X103.375 Y67.390
G1 F1080 X114.506 Y56.259 E226.27965
G0 F10500 X115.213 Y56.259
G1 F1080 X104.319 Y67.153 E226.58153
G0 F10500 X105.165 Y67.015
G1 F1080 X115.920 Y56.259 E226.87957
G0 F10500 X116.628 Y56.259
G1 F1080 X105.950 Y66.937 E227.17546
G0 F10500 X106.681 Y66.913
G1 F1080 X117.335 Y56.259 E227.47069
G0 F10500 X118.042 Y56.259
G1 F1080 X107.370 Y66.931 E227.76642
G0 F10500 X108.021 Y66.987
G1 F1080 X118.749 Y56.259 E228.06370
G0 F10500 X119.456 Y56.259
G1 F1080 X108.642 Y67.073 E228.36336
G0 F10500 X109.235 Y67.187
G1 F1080 X120.163 Y56.259 E228.66618
G0 F10500 X120.870 Y56.259
G1 F1080 X109.804 Y67.325 E228.97283
G0 F10500 X110.351 Y67.486
G1 F1080 X121.577 Y56.259 E229.28392
G0 F10500 X122.284 Y56.259
G1 F1080 X110.876 Y67.667 E229.60004
G0 F10500 X111.379 Y67.872
G1 F1080 X122.992 Y56.259 E229.92184
G0 F10500 X123.699 Y56.259
G1 F1080 X111.863 Y68.095 E230.24983
G0 F10500 X112.331 Y68.334
G1 F1080 X124.406 Y56.259 E230.58443
G0 F10500 X124.594 Y56.778
G1 F1080 X112.783 Y68.589 E230.91172
G0 F10500 X113.219 Y68.860
G1 F1080 X124.594 Y57.485 E231.22693
G0 F10500 X124.594 Y58.192
G1 F1080 X113.637 Y69.150 E231.53057
G0 F10500 X114.039 Y69.454
G1 F1080 X124.594 Y58.899 E231.82305
G0 F10500 X124.594 Y59.606
G1 F1080 X114.427 Y69.773 E232.10479
G0 F10500 X114.803 Y70.105
G1 F1080 X124.594 Y60.314 E232.37610
G0 F10500 X124.594 Y61.021
G1 F1080 X115.159 Y70.456 E232.63755
G0 F10500 X115.503 Y70.819
G1 F1080 X124.594 Y61.728 E232.88947
G0 F10500 X124.594 Y62.435
G1 F1080 X115.831 Y71.198 E233.13229
G0 F10500 X116.145 Y71.591
G1 F1080 X124.594 Y63.142 E233.36642
G0 F10500 X124.594 Y63.849
G1 F1080 X116.442 Y72.001 E233.59232
G0 F10500 X116.724 Y72.426
G1 F1080 X124.594 Y64.556 E233.81040
G0 F10500 X124.594 Y65.263
G1 F1080 X116.990 Y72.868 E234.02112
G0 F10500 X117.240 Y73.324
G1 F1080 X124.594 Y65.970 E234.22491
G0 F10500 X124.594 Y66.678
G1 F1080 X117.474 Y73.797 E234.42219
G0 F10500 X117.686 Y74.292
G1 F1080 X124.594 Y67.385 E234.61360
G0 F10500 X124.594 Y68.092
G1 F1080 X117.880 Y74.806 E234.79965
G0 F10500 X118.054 Y75.339
G1 F1080 X124.594 Y68.799 E234.98088
G0 F10500 X124.594 Y69.506
G1 F1080 X118.207 Y75.893 E235.15787
G0 F10500 X118.339 Y76.468
G1 F1080 X124.594 Y70.213 E235.33120
G0 F10500 X124.594 Y70.920
G1 F1080 X118.443 Y77.071 E235.50164
G0 F10500 X118.518 Y77.703
G1 F1080 X124.594 Y71.627 E235.67001
G0 F10500 X124.594 Y72.334
G1 F1080 X118.559 Y78.369 E235.83725
G0 F10500 X118.562 Y79.074
G1 F1080 X124.594 Y73.042 E236.00440
G0 F10500 X124.594 Y73.749
G1 F1080 X118.516 Y79.826 E236.17281
G0 F10500 X118.418 Y80.632
G1 F1080 X124.594 Y74.456 E236.34395
G0 F10500 X124.594 Y75.163
G1 F1080 X118.246 Y81.511 E236.51986
G0 F10500 X117.962 Y82.502
G1 F1080 X124.594 Y75.870 E236.70363
G0 F10500 X124.594 Y76.577
G1 F1080 X117.510 Y83.661 E236.89993
G0 F10500 X116.670 Y85.208
G1 F1080 X124.594 Y77.284 E237.11951
G0 F10500 X124.594 Y77.991
G1 F1080 X104.699 Y97.886 E237.67081
G0 F10500 X105.406 Y97.886
G1 F1080 X124.594 Y78.698 E238.20252
G0 F10500 X124.594 Y79.405
G1 F1080 X106.113 Y97.886 E238.71464
G0 F10500 X106.820 Y97.886
G1 F1080 X124.594 Y80.113 E239.20716
G0 F10500 X124.594 Y80.820
G1 F1080 X107.527 Y97.886 E239.68008
G0 F10500 X108.234 Y97.886
G1 F1080 X124.594 Y81.527 E240.13341
G0 F10500 X124.594 Y82.234
G1 F1080 X108.941 Y97.886 E240.56715
G0 F10500 X109.648 Y97.886
G1 F1080 X124.594 Y82.941 E240.98130
G0 F10500 X124.594 Y83.648
G1 F1080 X110.356 Y97.886 E241.37584
G0 F10500 X111.063 Y97.886
G1 F1080 X124.594 Y84.355 E241.75079
G0 F10500 X124.594 Y85.062
G1 F1080 X111.770 Y97.886 E242.10615
G0 F10500 X112.477 Y97.886
G1 F1080 X124.594 Y85.769 E242.44192
G0 F10500 X124.594 Y86.477
G1 F1080 X113.184 Y97.886 E242.75809
G0 F10500 X113.891 Y97.886
G1 F1080 X124.594 Y87.184 E243.05466
G0 F10500 X124.594 Y87.891
G1 F1080 X114.598 Y97.886 E243.33164
G0 F10500 X115.305 Y97.886
G1 F1080 X124.594 Y88.598 E243.58903
G0 F10500 X124.594 Y89.305
G1 F1080 X116.012 Y97.886 E243.82683
G0 F10500 X116.719 Y97.886
G1 F1080 X124.594 Y90.012 E244.04503
G0 F10500 X124.594 Y90.719
G1 F1080 X117.427 Y97.886 E244.24364
G0 F10500 X118.134 Y97.886
G1 F1080 X124.594 Y91.426 E244.42265
G0 F10500 X124.594 Y92.133
G1 F1080 X118.841 Y97.886 E244.58206
G0 F10500 X119.548 Y97.886
G1 F1080 X124.594 Y92.840 E244.72189
G0 F10500 X124.594 Y93.548
G1 F1080 X120.255 Y97.886 E244.84211
G0 F10500 X120.962 Y97.886
G1 F1080 X124.594 Y94.255 E244.94275
G0 F10500 X124.594 Y94.962
G1 F1080 X121.669 Y97.886 E245.02378
G0 F10500 X122.376 Y97.886
G1 F1080 X124.594 Y95.669 E245.08523
G0 F10500 X124.594 Y96.376
G1 F1080 X123.083 Y97.886 E245.12709
G0 F10500 X123.791 Y97.886
G1 F1080 X124.594 Y97.083 E245.14934
G0 F10500 X124.594 Y97.790
G1 F1080 X124.498 Y97.886 E245.15200
G0 F10500 X113.148 Y88.730
G1 F1080 X103.992 Y97.886 E245.40572
G0 F10500 X103.284 Y97.886
G1 F1080 X111.590 Y89.581 E245.63587
G0 F10500 X110.429 Y90.035
G1 F1080 X102.577 Y97.886 E245.85344
G0 F10500 X101.870 Y97.886
G1 F1080 X109.439 Y90.318 E246.06317
G0 F10500 X108.557 Y90.493
G1 F1080 X101.163 Y97.886 E246.26804
G0 F10500 X100.456 Y97.886
G1 F1080 X107.753 Y90.589 E246.47025
G0 F10500 X107.003 Y90.632
G1 F1080 X99.749 Y97.886 E246.67126
G0 F10500 X99.042 Y97.886
G1 F1080 X106.299 Y90.629 E246.87236
G0 F10500 X105.633 Y90.588
G1 F1080 X98.335 Y97.886 E247.07459
G0 F10500 X97.628 Y97.886
G1 F1080 X105.000 Y90.514 E247.27887
G0 F10500 X104.397 Y90.410
G1 F1080 X96.921 Y97.886 E247.48604
G0 F10500 X96.213 Y97.886
G1 F1080 X103.820 Y90.280 E247.69682
G0 F10500 X103.265 Y90.127
G1 F1080 X95.506 Y97.886 E247.91182
G0 F10500 X94.799 Y97.886
G1 F1080 X102.732 Y89.953 E248.13165
G0 F10500 X102.220 Y89.759
G1 F1080 X94.092 Y97.886 E248.35687
G0 F10500 X93.385 Y97.886
G1 F1080 X101.727 Y89.544 E248.58803
G0 F10500 X101.254 Y89.311
G1 F1080 X92.678 Y97.886 E248.82566
G0 F10500 X91.971 Y97.886
G1 F1080 X100.797 Y89.060 E249.07023
G0 F10500 X100.354 Y88.796
G1 F1080 X91.264 Y97.886 E249.32212
G0 F10500 X90.557 Y97.886
G1 F1080 X99.927 Y88.516 E249.58177
G0 F10500 X99.520 Y88.216
G1 F1080 X76.829 Y110.906 E250.21054
G0 F10500 X76.122 Y110.906
G1 F1080 X99.127 Y87.902 E250.84801
G0 F10500 X98.746 Y87.575
G1 F1080 X82.849 Y103.473 E251.28853
G0 F10500 X83.043 Y102.572
G1 F1080 X98.381 Y87.234 E251.71356
G0 F10500 X98.033 Y86.874
G1 F1080 X83.054 Y101.853 E252.12864
G0 F10500 X83.054 Y101.146
G1 F1080 X97.700 Y86.501 E252.53447
G0 F10500 X97.379 Y86.114
G1 F1080 X83.054 Y100.439 E252.93142
G0 F10500 X82.513 Y103.695
G0 X81.181 Y105.149
G0 X80.699 Y105.622
G1 F1080 X75.415 Y110.906 E253.07785
G0 F10500 X74.708 Y110.906
G1 F1080 X79.812 Y105.802 E253.21928
G0 F10500 X79.082 Y105.826
G1 F1080 X74.001 Y110.906 E253.36007
G0 F10500 X73.294 Y110.906
G1 F1080 X78.375 Y105.826 E253.50085
G0 F10500 X77.667 Y105.826
G1 F1080 X72.587 Y110.906 E253.64162
G0 F10500 X71.880 Y110.906
G1 F1080 X76.960 Y105.826 E253.78239
G0 F10500 X76.253 Y105.826
G1 F1080 X71.173 Y110.906 E253.92316
G0 F10500 X70.466 Y110.906
G1 F1080 X75.546 Y105.826 E254.06393
G0 F10500 X74.839 Y105.826
G1 F1080 X69.758 Y110.906 E254.20471
G0 F10500 X69.051 Y110.906
G1 F1080 X74.132 Y105.826 E254.34549
G0 F10500 X73.425 Y105.826
G1 F1080 X68.344 Y110.906 E254.48628
G0 F10500 X67.637 Y110.906
G1 F1080 X72.718 Y105.826 E254.62706
G0 F10500 X72.011 Y105.826
G1 F1080 X66.930 Y110.906 E254.76785
G0 F10500 X66.223 Y110.906
G1 F1080 X71.303 Y105.826 E254.90862
G0 F10500 X70.596 Y105.826
G1 F1080 X65.516 Y110.906 E255.04938
G0 F10500 X64.809 Y110.906
G1 F1080 X69.889 Y105.826 E255.19015
G0 F10500 X69.182 Y105.826
G1 F1080 X64.102 Y110.906 E255.33092
G0 F10500 X63.394 Y110.906
G1 F1080 X68.475 Y105.826 E255.47171
G0 F10500 X67.768 Y105.826
G1 F1080 X62.687 Y110.906 E255.61249
G0 F10500 X61.980 Y110.906
G1 F1080 X67.061 Y105.826 E255.75327
G0 F10500 X66.354 Y105.826
G1 F1080 X61.273 Y110.906 E255.89406
G0 F10500 X60.566 Y110.906
G1 F1080 X65.647 Y105.826 E256.03484
G0 F10500 X64.939 Y105.826
G1 F1080 X59.859 Y110.906 E256.17561
G0 F10500 X59.152 Y110.906
G1 F1080 X64.232 Y105.826 E256.31638
G0 F10500 X63.525 Y105.826
G1 F1080 X58.445 Y110.906 E256.45715
G0 F10500 X57.738 Y110.906
G1 F1080 X62.818 Y105.826 E256.59792
G0 F10500 X62.111 Y105.826
G1 F1080 X57.030 Y110.906 E256.73870
G0 F10500 X56.323 Y110.906
G1 F1080 X61.404 Y105.826 E256.87949
G0 F10500 X60.697 Y105.826
G1 F1080 X55.616 Y110.906 E257.02027
G0 F10500 X54.909 Y110.906
G1 F1080 X59.990 Y105.826 E257.16105
G0 F10500 X59.283 Y105.826
G1 F1080 X54.202 Y110.906 E257.30184
G0 F10500 X53.495 Y110.906
G1 F1080 X58.576 Y105.826 E257.44262
G0 F10500 X57.868 Y105.826
G1 F1080 X52.788 Y110.906 E257.58339
G0 F10500 X52.081 Y110.906
G1 F1080 X57.161 Y105.826 E257.72416
G0 F10500 X56.454 Y105.826
G1 F1080 X51.374 Y110.906 E257.86493
G0 F10500 X50.667 Y110.906
G1 F1080 X55.747 Y105.826 E258.00570
G0 F10500 X55.040 Y105.826
G1 F1080 X49.959 Y110.906 E258.14648
G0 F10500 X49.252 Y110.906
G1 F1080 X54.333 Y105.826 E258.28727
G0 F10500 X53.626 Y105.826
G1 F1080 X48.545 Y110.906 E258.42805
G0 F10500 X47.838 Y110.906
G1 F1080 X52.919 Y105.826 E258.56883
G0 F10500 X52.212 Y105.826
G1 F1080 X47.131 Y110.906 E258.70962
G0 F10500 X46.424 Y110.906
G1 F1080 X51.504 Y105.826 E258.85039
G0 F10500 X50.797 Y105.826
G1 F1080 X45.717 Y110.906 E258.99116
G0 F10500 X45.010 Y110.906
G1 F1080 X50.090 Y105.826 E259.13193
G0 F10500 X49.383 Y105.826
G1 F1080 X44.303 Y110.906 E259.27270
G0 F10500 X43.595 Y110.906
G1 F1080 X48.676 Y105.826 E259.41348
G0 F10500 X47.969 Y105.826
G1 F1080 X42.888 Y110.906 E259.55426
G0 F10500 X42.181 Y110.906
G1 F1080 X47.262 Y105.826 E259.69505
G0 F10500 X46.555 Y105.826
G1 F1080 X41.474 Y110.906 E259.83583
G0 F10500 X40.767 Y110.906
G1 F1080 X45.848 Y105.826 E259.97661
G0 F10500 X45.140 Y105.826
G1 F1080 X40.060 Y110.906 E260.11738
G0 F10500 X39.353 Y110.906
G1 F1080 X44.444 Y105.815 E260.25846
G0 F10500 X43.834 Y105.718
G1 F1080 X38.646 Y110.906 E260.40222
G0 F10500 X37.939 Y110.906
G1 F1080 X43.306 Y105.539 E260.55094
G0 F10500 X42.849 Y105.289
G1 F1080 X37.232 Y110.906 E260.70659
G0 F10500 X36.524 Y110.906
G1 F1080 X42.427 Y105.003 E260.87017
G0 F10500 X42.070 Y104.653
G1 F1080 X35.817 Y110.906 E261.04344
G0 F10500 X35.404 Y110.612
G1 F1080 X41.758 Y104.259 E261.21950
G0 F10500 X41.504 Y103.806
G1 F1080 X35.404 Y109.905 E261.38852
G0 F10500 X35.404 Y109.198
G1 F1080 X41.312 Y103.290 E261.55224
G0 F10500 X41.182 Y102.713
G1 F1080 X35.404 Y108.491 E261.71235
G0 F10500 X35.404 Y107.784
G1 F1080 X41.148 Y102.040 E261.87152
G0 F10500 X41.148 Y101.333
G1 F1080 X35.404 Y107.077 E262.03069
G0 F10500 X35.404 Y106.370
G1 F1080 X41.148 Y100.626 E262.18986
G0 F10500 X41.148 Y99.919
G1 F1080 X35.404 Y105.662 E262.34901
G0 F10500 X35.404 Y104.955
G1 F1080 X41.148 Y99.212 E262.50817
G0 F10500 X41.148 Y98.504
G1 F1080 X35.404 Y104.248 E262.66734
G0 F10500 X35.404 Y103.541
G1 F1080 X41.148 Y97.797 E262.82651
G0 F10500 X41.148 Y97.090
G1 F1080 X35.404 Y102.834 E262.98568
G0 F10500 X35.404 Y102.127
G1 F1080 X41.148 Y96.383 E263.14485
G0 F10500 X41.148 Y95.676
G1 F1080 X35.404 Y101.420 E263.30402
G0 F10500 X35.404 Y100.713
G1 F1080 X41.148 Y94.969 E263.46319
G0 F10500 X41.148 Y94.262
G1 F1080 X35.404 Y100.006 E263.62236
G0 F10500 X35.404 Y99.299
G1 F1080 X41.148 Y93.555 E263.78152
G0 F10500 X41.148 Y92.848
G1 F1080 X35.404 Y98.591 E263.94068
G0 F10500 X35.404 Y97.884
G1 F1080 X41.148 Y92.140 E264.09985
G0 F10500 X41.148 Y91.433
G1 F1080 X35.404 Y97.177 E264.25902
G0 F10500 X35.404 Y96.470
G1 F1080 X41.148 Y90.726 E264.41819
G0 F10500 X41.148 Y90.019
G1 F1080 X35.404 Y95.763 E264.57736
G0 F10500 X35.404 Y95.056
G1 F1080 X41.148 Y89.312 E264.73653
G0 F10500 X41.148 Y88.605
G1 F1080 X35.404 Y94.349 E264.89570
G0 F10500 X35.404 Y93.642
G1 F1080 X41.148 Y87.898 E265.05487
G0 F10500 X41.148 Y87.191
G1 F1080 X35.404 Y92.935 E265.21404
G0 F10500 X35.404 Y92.227
G1 F1080 X41.148 Y86.484 E265.37319
G0 F10500 X41.148 Y85.777
G1 F1080 X35.404 Y91.520 E265.53235
G0 F10500 X35.404 Y90.813
G1 F1080 X41.148 Y85.069 E265.69152
G0 F10500 X41.148 Y84.362
G1 F1080 X35.404 Y90.106 E265.85069
G0 F10500 X35.404 Y89.399
G1 F1080 X41.148 Y83.655 E266.00986
G0 F10500 X41.148 Y82.948
G1 F1080 X35.404 Y88.692 E266.16903
G0 F10500 X35.404 Y87.985
G1 F1080 X41.148 Y82.241 E266.32820
G0 F10500 X41.148 Y81.534
G1 F1080 X35.404 Y87.278 E266.48736
G0 F10500 X35.404 Y86.571
G1 F1080 X41.148 Y80.827 E266.64653
G0 F10500 X41.148 Y80.120
G1 F1080 X35.404 Y85.863 E266.80569
G0 F10500 X35.404 Y85.156
G1 F1080 X41.148 Y79.413 E266.96485
G0 F10500 X41.148 Y78.705
G1 F1080 X35.404 Y84.449 E267.12401
G0 F10500 X35.404 Y83.742
G1 F1080 X41.148 Y77.998 E267.28318
G0 F10500 X41.148 Y77.291
G1 F1080 X35.404 Y83.035 E267.44235
G0 F10500 X35.404 Y82.328
G1 F1080 X41.148 Y76.584 E267.60152
G0 F10500 X41.148 Y75.877
G1 F1080 X35.404 Y81.621 E267.76069
G0 F10500 X35.404 Y80.914
G1 F1080 X41.148 Y75.170 E267.91986
G0 F10500 X41.148 Y74.463
G1 F1080 X35.404 Y80.207 E268.07903
G0 F10500 X35.404 Y79.500
G1 F1080 X41.148 Y73.756 E268.23820
G0 F10500 X41.148 Y73.049
G1 F1080 X35.404 Y78.792 E268.39736
G0 F10500 X35.404 Y78.085
G1 F1080 X41.148 Y72.341 E268.55653
G0 F10500 X41.148 Y71.634
G1 F1080 X35.404 Y77.378 E268.71570
G0 F10500 X35.404 Y76.671
G1 F1080 X41.148 Y70.927 E268.87487
G0 F10500 X41.148 Y70.220
G1 F1080 X35.404 Y75.964 E269.03404
G0 F10500 X35.404 Y75.257
G1 F1080 X41.148 Y69.513 E269.19320
G0 F10500 X41.148 Y68.806
G1 F1080 X35.404 Y74.550 E269.35237
G0 F10500 X35.404 Y73.843
G1 F1080 X41.148 Y68.099 E269.51154
G0 F10500 X41.148 Y67.392
G1 F1080 X35.404 Y73.136 E269.67071
G0 F10500 X35.404 Y72.428
G1 F1080 X41.148 Y66.685 E269.82987
G0 F10500 X41.148 Y65.978
G1 F1080 X35.404 Y71.721 E269.98902
G0 F10500 X35.404 Y71.014
G1 F1080 X41.148 Y65.270 E270.14819
G0 F10500 X41.148 Y64.563
G1 F1080 X35.404 Y70.307 E270.30736
G0 F10500 X35.404 Y69.600
G1 F1080 X41.148 Y63.856 E270.46653
G0 F10500 X41.148 Y63.149
G1 F1080 X35.404 Y68.893 E270.62570
G0 F10500 X35.404 Y68.186
G1 F1080 X41.148 Y62.442 E270.78487
G0 F10500 X41.148 Y61.735
G1 F1080 X35.404 Y67.479 E270.94404
G0 F10500 X35.404 Y66.772
G1 F1080 X41.148 Y61.028 E271.10321
G0 F10500 X41.148 Y60.321
G1 F1080 X35.404 Y66.064 E271.26237
G0 F10500 X35.404 Y65.357
G1 F1080 X41.148 Y59.614 E271.42152
G0 F10500 X41.148 Y58.906
G1 F1080 X35.404 Y64.650 E271.58069
G0 F10500 X35.404 Y63.943
G1 F1080 X41.148 Y58.199 E271.73986
G0 F10500 X41.148 Y57.492
G1 F1080 X35.404 Y63.236 E271.89903
G0 F10500 X35.404 Y62.529
G1 F1080 X41.148 Y56.785 E272.05820
G0 F10500 X41.148 Y56.078
G1 F1080 X35.404 Y61.822 E272.21737
G0 F10500 X35.404 Y61.115
G1 F1080 X41.148 Y55.371 E272.37654
G0 F10500 X41.211 Y54.601
G1 F1080 X35.404 Y60.408 E272.53745
G0 F10500 X35.404 Y59.701
G1 F1080 X41.670 Y53.435 E272.71109
G0 F10500 X42.873 Y52.232
G1 F1080 X50.015 Y45.090 E272.90900
G0 F10500 X50.722 Y45.090
G1 F1080 X44.030 Y51.782 E273.09444
G0 F10500 X44.799 Y51.720
G1 F1080 X51.429 Y45.090 E273.27816
G0 F10500 X52.136 Y45.090
G1 F1080 X45.506 Y51.720 E273.46188
G0 F10500 X46.213 Y51.720
G1 F1080 X52.843 Y45.090 E273.64560
G0 F10500 X53.550 Y45.090
G1 F1080 X46.920 Y51.720 E273.82932
G0 F10500 X47.627 Y51.720
G1 F1080 X54.257 Y45.090 E274.01304
G0 F10500 X54.964 Y45.090
G1 F1080 X48.334 Y51.720 E274.19676
G0 F10500 X49.042 Y51.720
G1 F1080 X55.671 Y45.090 E274.38047
G0 F10500 X56.379 Y45.090
G1 F1080 X49.749 Y51.720 E274.56419
G0 F10500 X50.456 Y51.720
G1 F1080 X57.086 Y45.090 E274.74791
G0 F10500 X57.793 Y45.090
G1 F1080 X51.163 Y51.720 E274.93163
G0 F10500 X51.870 Y51.720
G1 F1080 X58.500 Y45.090 E275.11535
G0 F10500 X59.207 Y45.090
G1 F1080 X52.577 Y51.720 E275.29908
G0 F10500 X53.284 Y51.720
G1 F1080 X59.914 Y45.090 E275.48280
G0 F10500 X60.621 Y45.090
G1 F1080 X53.991 Y51.720 E275.66652
G0 F10500 X54.698 Y51.720
G1 F1080 X61.328 Y45.090 E275.85024
G0 F10500 X62.035 Y45.090
G1 F1080 X55.406 Y51.720 E276.03395
G0 F10500 X56.113 Y51.720
G1 F1080 X62.742 Y45.091 E276.21764
G0 F10500 X63.449 Y45.091
G1 F1080 X56.820 Y51.720 E276.40133
G0 F10500 X57.527 Y51.720
G1 F1080 X64.156 Y45.091 E276.58503
G0 F10500 X64.863 Y45.091
G1 F1080 X58.234 Y51.720 E276.76872
G0 F10500 X58.941 Y51.720
G1 F1080 X65.570 Y45.091 E276.95241
G0 F10500 X66.277 Y45.091
G1 F1080 X59.648 Y51.720 E277.13611
G0 F10500 X49.307 Y45.090
G1 F1080 X35.404 Y58.993 E277.52137
G0 F10500 X35.404 Y58.286
G1 F1080 X48.600 Y45.090 E277.88703
G0 F10500 X47.893 Y45.090
G1 F1080 X35.404 Y57.579 E278.23311
G0 F10500 X35.404 Y56.872
G1 F1080 X47.186 Y45.090 E278.55960
G0 F10500 X46.479 Y45.090
G1 F1080 X35.404 Y56.165 E278.86649
G0 F10500 X35.404 Y55.458
G1 F1080 X45.772 Y45.090 E279.15380
G0 F10500 X45.065 Y45.090
G1 F1080 X35.404 Y54.751 E279.42151
G0 F10500 X35.404 Y54.044
G1 F1080 X44.358 Y45.090 E279.66963
G0 F10500 X43.651 Y45.090
G1 F1080 X35.404 Y53.337 E279.89816
G0 F10500 X35.404 Y52.629
G1 F1080 X42.944 Y45.090 E280.10708
G0 F10500 X42.236 Y45.090
G1 F1080 X35.404 Y51.922 E280.29640
G0 F10500 X35.404 Y51.215
G1 F1080 X41.529 Y45.090 E280.46613
G0 F10500 X40.822 Y45.090
G1 F1080 X35.404 Y50.508 E280.61626
G0 F10500 X35.404 Y49.801
G1 F1080 X40.115 Y45.090 E280.74681
G0 F10500 X39.408 Y45.090
G1 F1080 X35.404 Y49.094 E280.85776
G0 F10500 X35.404 Y48.387
G1 F1080 X38.701 Y45.090 E280.94912
G0 F10500 X37.994 Y45.090
G1 F1080 X35.404 Y47.680 E281.02089
G0 F10500 X35.404 Y46.973
G1 F1080 X37.287 Y45.090 E281.07307
G0 F10500 X36.580 Y45.090
G1 F1080 X35.404 Y46.265 E281.10564
G0 F10500 X35.404 Y45.558
G1 F1080 X35.872 Y45.090 E281.11861
G0 F10500 X60.355 Y51.720
G1 F1080 X66.984 Y45.091 E281.30231
G0 F10500 X67.692 Y45.091
G1 F1080 X61.062 Y51.720 E281.48601
G0 F10500 X61.770 Y51.720
G1 F1080 X68.399 Y45.091 E281.66971
G0 F10500 X69.106 Y45.091
G1 F1080 X62.477 Y51.720 E281.85340
G0 F10500 X63.184 Y51.720
G1 F1080 X69.813 Y45.091 E282.03709
G0 F10500 X70.520 Y45.091
G1 F1080 X63.891 Y51.720 E282.22079
G0 F10500 X64.598 Y51.720
G1 F1080 X71.227 Y45.091 E282.40448
G0 F10500 X71.934 Y45.091
G1 F1080 X65.305 Y51.720 E282.58817
G0 F10500 X66.012 Y51.720
G1 F1080 X72.641 Y45.091 E282.77187
G0 F10500 X73.348 Y45.091
G1 F1080 X66.719 Y51.720 E282.95556
G0 F10500 X67.426 Y51.720
G1 F1080 X74.056 Y45.091 E283.13927
G0 F10500 X74.763 Y45.091
G1 F1080 X68.133 Y51.720 E283.32297
G0 F10500 X68.841 Y51.720
G1 F1080 X75.470 Y45.091 E283.50667
G0 F10500 X76.177 Y45.091
G1 F1080 X69.548 Y51.720 E283.69036
G0 F10500 X70.255 Y51.720
G1 F1080 X76.884 Y45.091 E283.87406
G0 F10500 X77.591 Y45.091
G1 F1080 X70.962 Y51.720 E284.05775
G0 F10500 X71.669 Y51.720
G1 F1080 X78.298 Y45.091 E284.24144
G0 F10500 X79.005 Y45.091
G1 F1080 X72.376 Y51.720 E284.42514
G0 F10500 X73.083 Y51.720
G1 F1080 X79.712 Y45.091 E284.60883
G0 F10500 X80.419 Y45.091
G1 F1080 X73.790 Y51.720 E284.79252
G0 F10500 X74.497 Y51.720
G1 F1080 X81.127 Y45.091 E284.97623
G0 F10500 X81.834 Y45.091
G1 F1080 X75.205 Y51.720 E285.15992
G0 F10500 X75.912 Y51.720
G1 F1080 X82.541 Y45.091 E285.34362
G0 F10500 X83.248 Y45.091
G1 F1080 X76.619 Y51.720 E285.52731
G0 F10500 X77.326 Y51.720
G1 F1080 X83.955 Y45.091 E285.71100
G0 F10500 X84.662 Y45.091
G1 F1080 X78.033 Y51.720 E285.89470
G0 F10500 X78.740 Y51.720
G1 F1080 X85.369 Y45.091 E286.07839
G0 F10500 X86.076 Y45.091
G1 F1080 X79.447 Y51.720 E286.26208
G0 F10500 X80.105 Y51.770
G1 F1080 X86.783 Y45.091 E286.44715
G0 F10500 X87.491 Y45.091
G1 F1080 X80.663 Y51.918 E286.63634
G0 F10500 X81.159 Y52.130
G1 F1080 X88.198 Y45.091 E286.83140
G0 F10500 X88.905 Y45.091
G1 F1080 X81.584 Y52.412 E287.03427
G0 F10500 X81.970 Y52.733
G1 F1080 X89.612 Y45.091 E287.24603
G0 F10500 X89.710 Y45.700
G1 F1080 X82.307 Y53.103 E287.45117
G0 F10500 X82.592 Y53.525
G1 F1080 X89.710 Y46.407 E287.64841
G0 F10500 X89.710 Y47.114
G1 F1080 X82.819 Y54.005 E287.83937
G0 F10500 X82.978 Y54.553
G1 F1080 X89.710 Y47.821 E288.02592
G0 F10500 X89.710 Y48.528
G1 F1080 X83.050 Y55.188 E288.21047
G0 F10500 X83.054 Y55.891
G1 F1080 X89.710 Y49.235 E288.39491
G0 F10500 X89.710 Y49.942
G1 F1080 X83.054 Y56.598 E288.57935
G0 F10500 X83.054 Y57.306
G1 F1080 X89.710 Y50.650 E288.76379
G0 F10500 X89.710 Y51.357
G1 F1080 X83.054 Y58.013 E288.94823
G0 F10500 X83.054 Y58.720
G1 F1080 X89.710 Y52.064 E289.13268
G0 F10500 X89.710 Y52.771
G1 F1080 X83.054 Y59.427 E289.31712
G0 F10500 X83.054 Y60.134
G1 F1080 X89.710 Y53.478 E289.50156
G0 F10500 X89.710 Y54.185
G1 F1080 X83.054 Y60.841 E289.68600
G0 F10500 X83.054 Y61.548
G1 F1080 X89.710 Y54.892 E289.87044
G0 F10500 X89.710 Y55.599
G1 F1080 X83.054 Y62.255 E290.05488
G0 F10500 X83.054 Y62.962
G1 F1080 X89.758 Y56.259 E290.24064
G0 F10500 X90.465 Y56.259
G1 F1080 X83.054 Y63.670 E290.44600
G0 F10500 X83.054 Y64.377
G1 F1080 X91.172 Y56.259 E290.67096
G0 F10500 X91.879 Y56.259
G1 F1080 X83.054 Y65.084 E290.91550
G0 F10500 X83.054 Y65.791
G1 F1080 X92.586 Y56.259 E291.17964
G0 F10500 X93.293 Y56.259
G1 F1080 X83.054 Y66.498 E291.46337
G0 F10500 X83.054 Y67.205
G1 F1080 X94.000 Y56.259 E291.76669
G0 F10500 X94.707 Y56.259
G1 F1080 X83.054 Y67.912 E292.08960
G0 F10500 X83.054 Y68.619
G1 F1080 X95.414 Y56.259 E292.43210
G0 F10500 X96.121 Y56.259
G1 F1080 X83.054 Y69.326 E292.79420
G0 F10500 X83.054 Y70.033
G1 F1080 X96.829 Y56.259 E293.17590
G0 F10500 X97.536 Y56.259
G1 F1080 X83.054 Y70.741 E293.57720
G0 F10500 X83.054 Y71.448
G1 F1080 X98.243 Y56.259 E293.99810
G0 F10500 X98.950 Y56.259
G1 F1080 X83.054 Y72.155 E294.43858
G0 F10500 X83.054 Y72.862
G1 F1080 X99.657 Y56.259 E294.89866
G0 F10500 X100.364 Y56.259
G1 F1080 X83.054 Y73.569 E295.37833
G0 F10500 X83.054 Y74.276
G1 F1080 X101.071 Y56.259 E295.87759
G0 F10500 X101.778 Y56.259
G1 F1080 X83.054 Y74.983 E296.39645
G0 F10500 X83.054 Y75.690
G1 F1080 X102.485 Y56.259 E296.93489
G0 F10500 X103.193 Y56.259
G1 F1080 X83.054 Y76.397 E297.49294
G0 F10500 X83.054 Y77.105
G1 F1080 X103.900 Y56.259 E298.07059
G0 F10500 X104.607 Y56.259
G1 F1080 X83.054 Y77.812 E298.66784
G0 F10500 X83.054 Y78.519
G1 F1080 X105.314 Y56.259 E299.28468
G0 F10500 X106.021 Y56.259
G1 F1080 X83.054 Y79.226 E299.92111
G0 F10500 X83.054 Y79.933
G1 F1080 X106.728 Y56.259 E300.57713
G0 F10500 X107.435 Y56.259
G1 F1080 X83.054 Y80.640 E301.25274
G0 F10500 X83.054 Y81.347
G1 F1080 X108.142 Y56.259 E301.94794
G0 F10500 X108.849 Y56.259
G1 F1080 X83.054 Y82.054 E302.66273
G0 F10500 X83.054 Y82.761
G1 F1080 X109.557 Y56.259 E303.39713
G0 F10500 X110.264 Y56.259
G1 F1080 X83.054 Y83.469 E304.15114
G0 F10500 X83.054 Y84.176
G1 F1080 X110.971 Y56.259 E304.92473
G0 F10500 X111.678 Y56.259
G1 F1080 X83.054 Y84.883 E305.71792
G0 F10500 X83.054 Y85.590
G1 F1080 X112.385 Y56.259 E306.53070
G0 F10500 X96.320 Y73.031
G1 F1080 X83.054 Y86.297 E306.89831
G0 F10500 X83.054 Y87.004
G1 F1080 X95.677 Y74.381 E307.24810
G0 F10500 X95.313 Y75.453
G1 F1080 X83.054 Y87.711 E307.58779
G0 F10500 X83.054 Y88.418
G1 F1080 X95.075 Y76.397 E307.92090
G0 F10500 X94.936 Y77.244
G1 F1080 X83.054 Y89.125 E308.25014
G0 F10500 X83.054 Y89.832
G1 F1080 X94.860 Y78.027 E308.57728
G0 F10500 X94.837 Y78.757
G1 F1080 X83.054 Y90.540 E308.90379
G0 F10500 X83.054 Y91.247
G1 F1080 X94.856 Y79.444 E309.23084
G0 F10500 X94.912 Y80.096
G1 F1080 X83.054 Y91.954 E309.55944
G0 F10500 X83.054 Y92.661
G1 F1080 X94.998 Y80.717 E309.89041
G0 F10500 X95.112 Y81.310
G1 F1080 X83.054 Y93.368 E310.22455
G0 F10500 X83.054 Y94.075
G1 F1080 X95.251 Y81.878 E310.56253
G0 F10500 X95.413 Y82.423
G1 F1080 X83.054 Y94.782 E310.90501
G0 F10500 X83.054 Y95.489
G1 F1080 X95.595 Y82.948 E311.25252
G0 F10500 X95.796 Y83.454
G1 F1080 X83.054 Y96.196 E311.60561
G0 F10500 X83.054 Y96.904
G1 F1080 X96.019 Y83.939 E311.96488
G0 F10500 X96.259 Y84.405
G1 F1080 X83.054 Y97.611 E312.33081
G0 F10500 X83.054 Y98.318
G1 F1080 X96.515 Y84.857 E312.70382
G0 F10500 X96.787 Y85.292
G1 F1080 X83.054 Y99.025 E313.08437
G0 F10500 X83.054 Y99.732
G1 F1080 X97.073 Y85.714 E313.47283
G0 F10500 X90.409 Y98.034
G1 F1080 X77.537 Y110.906 E313.82952
G0 F10500 X78.244 Y110.906
G1 F1080 X90.409 Y98.741 E314.16662
G0 F10500 X90.409 Y99.448
G1 F1080 X78.951 Y110.906 E314.48413
G0 F10500 X79.658 Y110.906
G1 F1080 X90.409 Y100.156 E314.78203
G0 F10500 X90.409 Y100.863
G1 F1080 X80.365 Y110.906 E315.06034
G0 F10500 X81.072 Y110.906
G1 F1080 X90.409 Y101.570 E315.31906
G0 F10500 X90.409 Y102.277
G1 F1080 X81.779 Y110.906 E315.55819
G0 F10500 X82.486 Y110.906
G1 F1080 X90.409 Y102.984 E315.77773
G0 F10500 X90.409 Y103.691
G1 F1080 X83.193 Y110.906 E315.97768
G0 F10500 X83.901 Y110.906
G1 F1080 X90.409 Y104.398 E316.15802
G0 F10500 X90.409 Y105.105
G1 F1080 X84.608 Y110.906 E316.31876
G0 F10500 X85.315 Y110.906
G1 F1080 X90.409 Y105.812 E316.45992
G0 F10500 X90.409 Y106.519
G1 F1080 X86.022 Y110.906 E316.58149
G0 F10500 X86.729 Y110.906
G1 F1080 X90.409 Y107.227 E316.68345
G0 F10500 X90.409 Y107.934
G1 F1080 X87.436 Y110.906 E316.76582
G0 F10500 X88.143 Y110.906
G1 F1080 X90.409 Y108.641 E316.82860
G0 F10500 X90.409 Y109.348
G1 F1080 X88.850 Y110.906 E316.87178
G0 F10500 X89.557 Y110.906
G1 F1080 X90.409 Y110.055 E316.89538
G0 F10500 X90.409 Y110.762
G1 F1080 X90.265 Y110.906 E316.89937
;LAYER:2
G0 F10500 X90.584 Y111.083 Z0.925
;TYPE:WALL-INNER
G1 F1440 X35.230 Y111.083 E317.98399
G1 X35.230 Y44.917 E319.28047
G1 X89.886 Y44.917 E320.35142
G1 X89.886 Y56.085 E320.57025
G1 X124.770 Y56.085 E321.25378
G1 X124.770 Y98.062 E322.07629
G1 X90.584 Y98.062 E322.74614
G1 X90.584 Y111.083 E323.00128
G0 F10500 X82.096 Y104.076
G1 F1440 X82.436 Y103.445 E323.01532
G1 X82.608 Y102.843 E323.02759
G1 X82.646 Y102.549 E323.03340
G1 X82.658 Y102.292 E323.03844
G1 X82.654 Y90.522 E323.26907
G1 X82.653 Y90.214 E323.27510
G1 X82.654 Y84.648 E323.38416
G1 X82.653 Y84.339 E323.39022
G1 X82.654 Y78.773 E323.49928
G1 X82.653 Y78.464 E323.50534
G1 X82.654 Y72.899 E323.61438
G1 X82.653 Y72.590 E323.62043
G1 X82.654 Y67.024 E323.72949
G1 X82.653 Y66.715 E323.73555
G1 X82.654 Y61.149 E323.84461
G1 X82.652 Y60.574 E323.85588
G1 X82.658 Y55.257 E323.96006
G1 X82.645 Y54.982 E323.96546
G1 X82.550 Y54.447 E323.97610
G1 X82.285 Y53.781 E323.99015
G1 X81.935 Y53.264 E324.00238
G1 X81.723 Y53.031 E324.00855
G1 X81.326 Y52.699 E324.01869
G1 X81.067 Y52.533 E324.02472
G1 X80.582 Y52.308 E324.03520
G1 X80.067 Y52.169 E324.04565
G1 X79.522 Y52.118 E324.05638
G1 X75.851 Y52.124 E324.12831
G1 X69.302 Y52.123 E324.25663
G1 X68.976 Y52.124 E324.26302
G1 X63.152 Y52.123 E324.37714
G1 X62.826 Y52.124 E324.38352
G1 X57.002 Y52.123 E324.49764
G1 X56.676 Y52.124 E324.50403
G1 X50.852 Y52.123 E324.61815
G1 X50.248 Y52.125 E324.62998
G1 X44.684 Y52.118 E324.73900
G1 X44.410 Y52.132 E324.74438
G1 X43.886 Y52.224 E324.75480
G1 X43.369 Y52.413 E324.76559
G1 X42.891 Y52.688 E324.77640
G1 X42.461 Y53.049 E324.78740
G1 X42.027 Y53.599 E324.80112
G1 X41.837 Y53.950 E324.80894
G1 X41.652 Y54.458 E324.81954
G1 X41.560 Y54.982 E324.82996
G1 X41.546 Y55.256 E324.83534
G1 X41.551 Y67.027 E325.06598
G1 X41.552 Y67.335 E325.07202
G1 X41.551 Y72.901 E325.18108
G1 X41.552 Y73.210 E325.18714
G1 X41.551 Y78.775 E325.29618
G1 X41.552 Y79.084 E325.30223
G1 X41.551 Y84.650 E325.41129
G1 X41.552 Y84.959 E325.41735
G1 X41.551 Y90.525 E325.52641
G1 X41.552 Y90.834 E325.53247
G1 X41.551 Y96.400 E325.64153
G1 X41.553 Y96.975 E325.65279
G1 X41.546 Y102.293 E325.75700
G1 X41.560 Y102.567 E325.76237
G1 X41.652 Y103.091 E325.77280
G1 X41.841 Y103.609 E325.78360
G1 X42.116 Y104.084 E325.79436
G1 X42.476 Y104.516 E325.80538
G1 X43.041 Y104.961 E325.81947
G1 X43.618 Y105.240 E325.83203
G1 X44.140 Y105.380 E325.84262
G1 X44.428 Y105.418 E325.84831
G1 X44.685 Y105.430 E325.85335
G1 X56.305 Y105.426 E326.08104
G1 X56.611 Y105.425 E326.08703
G1 X62.104 Y105.426 E326.19466
G1 X62.411 Y105.425 E326.20068
G1 X67.904 Y105.426 E326.30831
G1 X68.211 Y105.425 E326.31433
G1 X73.704 Y105.426 E326.42196
G1 X74.275 Y105.424 E326.43315
G1 X79.521 Y105.430 E326.53594
G1 X79.796 Y105.417 E326.54133
G1 X80.330 Y105.322 E326.55196
G1 X80.996 Y105.057 E326.56600
G1 X81.513 Y104.707 E326.57824
G1 X81.746 Y104.495 E326.58441
G1 X82.096 Y104.076 E326.59511
G0 F10500 X98.681 Y86.907
G1 F1440 X99.144 Y87.340 E326.60753
G1 X99.633 Y87.747 E326.62000
G1 X100.142 Y88.126 E326.63243
G1 X100.673 Y88.476 E326.64489
G1 X101.221 Y88.796 E326.65733
G1 X101.786 Y89.085 E326.66976
G1 X102.367 Y89.343 E326.68222
G1 X102.962 Y89.567 E326.69467
G1 X103.567 Y89.758 E326.70711
G1 X104.182 Y89.916 E326.71955
G1 X104.805 Y90.039 E326.73199
G1 X105.434 Y90.127 E326.74444
G1 X106.067 Y90.179 E326.75688
G1 X106.702 Y90.197 E326.76933
G1 X107.336 Y90.179 E326.78176
G1 X107.969 Y90.127 E326.79420
G1 X108.598 Y90.039 E326.80665
G1 X109.222 Y89.916 E326.81911
G1 X109.836 Y89.758 E326.83153
G1 X110.442 Y89.567 E326.84398
G1 X111.037 Y89.343 E326.85644
G1 X111.617 Y89.085 E326.86888
G1 X112.182 Y88.796 E326.88131
G1 X112.731 Y88.476 E326.89376
G1 X113.261 Y88.126 E326.90621
G1 X113.771 Y87.747 E326.91866
G1 X114.259 Y87.340 E326.93111
G1 X114.723 Y86.907 E326.94354
G1 X115.163 Y86.449 E326.95599
G1 X115.576 Y85.966 E326.96844
G1 X115.962 Y85.463 E326.98086
G1 X116.320 Y84.937 E326.99333
G1 X116.647 Y84.392 E327.00579
G1 X116.943 Y83.832 E327.01820
G1 X117.209 Y83.256 E327.03063
G1 X117.443 Y82.663 E327.04312
G1 X117.642 Y82.061 E327.05554
G1 X117.807 Y81.449 E327.06796
G1 X117.939 Y80.829 E327.08038
G1 X118.036 Y80.199 E327.09287
G1 X118.097 Y79.567 E327.10532
G1 X118.124 Y78.931 E327.11779
G1 X118.115 Y78.297 E327.13021
G1 X118.071 Y77.665 E327.14263
G1 X117.992 Y77.036 E327.15505
G1 X117.878 Y76.411 E327.16750
G1 X117.729 Y75.793 E327.17995
G1 X117.546 Y75.185 E327.19239
G1 X117.330 Y74.588 E327.20483
G1 X117.081 Y74.003 E327.21729
G1 X116.799 Y73.435 E327.22972
G1 X116.488 Y72.881 E327.24217
G1 X116.144 Y72.346 E327.25463
G1 X115.772 Y71.831 E327.26708
G1 X115.371 Y71.337 E327.27955
G1 X114.947 Y70.867 E327.29195
G1 X114.494 Y70.421 E327.30440
G1 X114.017 Y70.001 E327.31686
G1 X113.519 Y69.609 E327.32928
G1 X112.999 Y69.243 E327.34174
G1 X112.459 Y68.909 E327.35418
G1 X111.902 Y68.604 E327.36662
G1 X111.329 Y68.331 E327.37906
G1 X110.740 Y68.089 E327.39153
G1 X110.141 Y67.882 E327.40395
G1 X109.530 Y67.707 E327.41641
G1 X108.911 Y67.567 E327.42884
G1 X108.284 Y67.462 E327.44130
G1 X107.653 Y67.391 E327.45374
G1 X107.021 Y67.356 E327.46614
G1 X106.761 Y67.355 E327.47124
G1 X106.138 Y67.369 E327.48345
G1 X105.504 Y67.417 E327.49591
G1 X104.875 Y67.502 E327.50834
G1 X104.251 Y67.620 E327.52079
G1 X103.635 Y67.774 E327.53323
G1 X103.036 Y67.959 E327.54551
G1 X102.075 Y68.331 E327.56570
G1 X101.502 Y68.604 E327.57814
G1 X100.946 Y68.909 E327.59057
G1 X100.404 Y69.243 E327.60304
G1 X99.885 Y69.609 E327.61548
G1 X99.387 Y70.001 E327.62790
G1 X98.910 Y70.422 E327.64037
G1 X98.459 Y70.868 E327.65280
G1 X98.032 Y71.337 E327.66523
G1 X97.631 Y71.831 E327.67769
G1 X97.260 Y72.346 E327.69013
G1 X96.916 Y72.881 E327.70259
G1 X96.605 Y73.435 E327.71504
G1 X96.323 Y74.003 E327.72747
G1 X96.074 Y74.588 E327.73993
G1 X95.858 Y75.185 E327.75236
G1 X95.675 Y75.793 E327.76481
G1 X95.526 Y76.410 E327.77724
G1 X95.411 Y77.036 E327.78971
G1 X95.333 Y77.665 E327.80213
G1 X95.288 Y78.297 E327.81455
G1 X95.280 Y78.932 E327.82699
G1 X95.307 Y79.567 E327.83945
G1 X95.368 Y80.198 E327.85187
G1 X95.465 Y80.829 E327.86438
G1 X95.597 Y81.448 E327.87678
G1 X95.761 Y82.061 E327.88921
G1 X95.962 Y82.663 E327.90165
G1 X96.194 Y83.255 E327.91411
G1 X96.460 Y83.832 E327.92656
G1 X96.757 Y84.393 E327.93899
G1 X97.084 Y84.938 E327.95145
G1 X97.442 Y85.462 E327.96388
G1 X97.827 Y85.966 E327.97631
G1 X98.241 Y86.449 E327.98878
G1 X98.681 Y86.907 E328.00122
G0 F10500 X99.032 Y86.551
;TYPE:WALL-OUTER
G1 F1320 X99.475 Y86.965 E328.01310
G1 X99.942 Y87.354 E328.02501
G1 X100.429 Y87.717 E328.03691
G1 X100.937 Y88.051 E328.04882
G1 X101.461 Y88.357 E328.06071
G1 X102.001 Y88.634 E328.07261
G1 X102.557 Y88.880 E328.08452
G1 X103.125 Y89.094 E328.09641
G1 X103.704 Y89.277 E328.10831
G1 X104.293 Y89.428 E328.12022
G1 X104.888 Y89.546 E328.13211
G1 X105.489 Y89.630 E328.14400
G1 X106.095 Y89.680 E328.15592
G1 X106.702 Y89.697 E328.16781
G1 X107.308 Y89.680 E328.17969
G1 X107.914 Y89.630 E328.19161
G1 X108.515 Y89.546 E328.20350
G1 X109.111 Y89.428 E328.21540
G1 X109.699 Y89.277 E328.22730
G1 X110.279 Y89.094 E328.23922
G1 X110.847 Y88.880 E328.25111
G1 X111.402 Y88.634 E328.26300
G1 X111.942 Y88.357 E328.27490
G1 X112.467 Y88.051 E328.28680
G1 X112.974 Y87.717 E328.29870
G1 X113.462 Y87.354 E328.31062
G1 X113.928 Y86.965 E328.32251
G1 X114.372 Y86.551 E328.33441
G1 X114.792 Y86.113 E328.34630
G1 X115.187 Y85.651 E328.35821
G1 X115.557 Y85.170 E328.37010
G1 X115.899 Y84.668 E328.38200
G1 X116.211 Y84.147 E328.39390
G1 X116.495 Y83.610 E328.40580
G1 X116.749 Y83.059 E328.41769
G1 X116.972 Y82.493 E328.42961
G1 X117.163 Y81.917 E328.44150
G1 X117.321 Y81.332 E328.45337
G1 X117.447 Y80.739 E328.46525
G1 X117.540 Y80.137 E328.47719
G1 X117.598 Y79.532 E328.48910
G1 X117.624 Y78.924 E328.50102
G1 X117.615 Y78.318 E328.51290
G1 X117.573 Y77.714 E328.52476
G1 X117.497 Y77.112 E328.53665
G1 X117.389 Y76.514 E328.54856
G1 X117.246 Y75.924 E328.56045
G1 X117.071 Y75.342 E328.57236
G1 X116.865 Y74.771 E328.58425
G1 X116.626 Y74.212 E328.59617
G1 X116.357 Y73.668 E328.60806
G1 X116.059 Y73.139 E328.61996
G1 X115.731 Y72.627 E328.63187
G1 X115.375 Y72.135 E328.64377
G1 X114.991 Y71.662 E328.65571
G1 X114.586 Y71.213 E328.66755
G1 X114.153 Y70.787 E328.67946
G1 X113.697 Y70.385 E328.69137
G1 X113.220 Y70.010 E328.70326
G1 X112.723 Y69.660 E328.71517
G1 X112.207 Y69.341 E328.72706
G1 X111.674 Y69.049 E328.73896
G1 X111.126 Y68.788 E328.75086
G1 X110.563 Y68.557 E328.76278
G1 X109.990 Y68.359 E328.77466
G1 X109.406 Y68.192 E328.78656
G1 X108.814 Y68.058 E328.79845
G1 X108.215 Y67.957 E328.81036
G1 X107.611 Y67.890 E328.82227
G1 X107.006 Y67.856 E328.83414
G1 X106.766 Y67.855 E328.83884
G1 X106.163 Y67.868 E328.85066
G1 X105.557 Y67.914 E328.86257
G1 X104.955 Y67.996 E328.87447
G1 X104.358 Y68.109 E328.88638
G1 X103.770 Y68.256 E328.89825
G1 X103.192 Y68.434 E328.91010
G1 X102.278 Y68.788 E328.92931
G1 X101.730 Y69.049 E328.94120
G1 X101.197 Y69.341 E328.95311
G1 X100.680 Y69.660 E328.96501
G1 X100.184 Y70.010 E328.97691
G1 X99.707 Y70.385 E328.98880
G1 X99.251 Y70.787 E329.00071
G1 X98.820 Y71.214 E329.01260
G1 X98.411 Y71.663 E329.02450
G1 X98.028 Y72.135 E329.03641
G1 X97.673 Y72.627 E329.04830
G1 X97.345 Y73.139 E329.06021
G1 X97.047 Y73.668 E329.07211
G1 X96.778 Y74.212 E329.08400
G1 X96.539 Y74.771 E329.09591
G1 X96.333 Y75.342 E329.10781
G1 X96.158 Y75.924 E329.11971
G1 X96.015 Y76.514 E329.13161
G1 X95.906 Y77.112 E329.14352
G1 X95.831 Y77.714 E329.15541
G1 X95.788 Y78.318 E329.16727
G1 X95.780 Y78.925 E329.17917
G1 X95.806 Y79.532 E329.19107
G1 X95.864 Y80.136 E329.20296
G1 X95.957 Y80.739 E329.21492
G1 X96.083 Y81.331 E329.22678
G1 X96.240 Y81.917 E329.23866
G1 X96.432 Y82.493 E329.25056
G1 X96.654 Y83.059 E329.26247
G1 X96.908 Y83.610 E329.27436
G1 X97.192 Y84.147 E329.28626
G1 X97.505 Y84.668 E329.29817
G1 X97.847 Y85.169 E329.31006
G1 X98.216 Y85.651 E329.32195
G1 X98.612 Y86.113 E329.33388
G1 X99.032 Y86.551 E329.34577
G0 F10500 X98.778 Y86.790
G0 X91.084 Y98.212
G0 X91.084 Y98.562
G1 F1320 X91.084 Y111.583 E329.60091
G1 X34.730 Y111.583 E330.70512
G1 X34.730 Y44.417 E332.02120
G1 X90.386 Y44.417 E333.11174
G1 X90.386 Y55.585 E333.33057
G1 X125.270 Y55.585 E334.01410
G1 X125.270 Y98.562 E334.85620
G1 X91.084 Y98.562 E335.52605
G0 F10500 X91.084 Y98.212
G0 X90.693 Y98.171
G0 X82.507 Y102.300
G0 X82.158 Y102.280
G1 F1320 X82.158 Y55.269 E336.44720
G1 X82.147 Y55.038 E336.45173
G1 X82.067 Y54.584 E336.46077
G1 X81.840 Y54.016 E336.47275
G1 X81.541 Y53.574 E336.48321
G1 X81.376 Y53.393 E336.48801
G1 X81.029 Y53.103 E336.49687
G1 X80.826 Y52.972 E336.50160
G1 X80.410 Y52.779 E336.51059
G1 X79.969 Y52.660 E336.51954
G1 X79.509 Y52.618 E336.52859
G1 X44.696 Y52.618 E337.21073
G1 X44.466 Y52.630 E337.21524
G1 X44.016 Y52.709 E337.22419
G1 X43.581 Y52.868 E337.23327
G1 X43.179 Y53.099 E337.24235
G1 X42.822 Y53.399 E337.25149
G1 X42.446 Y53.875 E337.26338
G1 X42.294 Y54.156 E337.26964
G1 X42.137 Y54.588 E337.27864
G1 X42.058 Y55.038 E337.28759
G1 X42.046 Y102.281 E338.21329
G1 X42.058 Y102.511 E338.21780
G1 X42.137 Y102.961 E338.22675
G1 X42.296 Y103.396 E338.23583
G1 X42.527 Y103.797 E338.24490
G1 X42.827 Y104.155 E338.25405
G1 X43.308 Y104.534 E338.26605
G1 X43.793 Y104.769 E338.27661
G1 X44.237 Y104.889 E338.28562
G1 X44.697 Y104.930 E338.29467
G1 X79.509 Y104.930 E338.97679
G1 X79.740 Y104.919 E338.98132
G1 X80.193 Y104.839 E338.99033
G1 X80.761 Y104.612 E339.00232
G1 X81.203 Y104.313 E339.01277
G1 X81.384 Y104.148 E339.01757
G1 X81.680 Y103.794 E339.02661
G1 X81.970 Y103.256 E339.03859
G1 X82.117 Y102.742 E339.04907
G1 X82.158 Y102.280 E339.05815
G0 F10500 X82.832 Y102.278
;TYPE:SKIN
G1 F1320 X90.409 Y109.854 E339.26810
G0 F10500 X90.409 Y110.561
G1 F1320 X82.767 Y102.920 E339.47985
G0 F10500 X82.609 Y103.469
G1 F1320 X90.047 Y110.906 E339.68595
G0 F10500 X89.340 Y110.906
G1 F1320 X82.369 Y103.936 E339.87911
G0 F10500 X82.085 Y104.359
G1 F1320 X88.633 Y110.906 E340.06054
G0 F10500 X87.925 Y110.906
G1 F1320 X81.747 Y104.728 E340.23174
G0 F10500 X81.344 Y105.032
G1 F1320 X87.218 Y110.906 E340.39451
G0 F10500 X86.511 Y110.906
G1 F1320 X80.891 Y105.286 E340.55024
G0 F10500 X80.386 Y105.488
G1 F1320 X85.804 Y110.906 E340.70038
G0 F10500 X85.097 Y110.906
G1 F1320 X79.782 Y105.592 E340.84765
G0 F10500 X79.087 Y105.604
G1 F1320 X84.390 Y110.906 E340.99458
G0 F10500 X83.683 Y110.906
G1 F1320 X78.380 Y105.604 E341.14152
G0 F10500 X77.673 Y105.604
G1 F1320 X82.976 Y110.906 E341.28845
G0 F10500 X82.269 Y110.906
G1 F1320 X76.966 Y105.604 E341.43539
G0 F10500 X76.259 Y105.604
G1 F1320 X81.561 Y110.906 E341.58231
G0 F10500 X80.854 Y110.906
G1 F1320 X75.552 Y105.604 E341.72923
G0 F10500 X74.845 Y105.604
G1 F1320 X80.147 Y110.906 E341.87615
G0 F10500 X82.832 Y101.570
G1 F1320 X90.409 Y109.147 E342.08611
G0 F10500 X90.409 Y108.440
G1 F1320 X82.832 Y100.863 E342.29608
G0 F10500 X82.832 Y100.156
G1 F1320 X90.409 Y107.733 E342.50604
G0 F10500 X90.409 Y107.026
G1 F1320 X82.832 Y99.449 E342.71600
G0 F10500 X82.832 Y98.742
G1 F1320 X90.409 Y106.319 E342.92597
G0 F10500 X90.409 Y105.612
G1 F1320 X82.832 Y98.035 E343.13593
G0 F10500 X82.832 Y97.328
G1 F1320 X90.409 Y104.904 E343.34588
G0 F10500 X90.409 Y104.197
G1 F1320 X82.832 Y96.621 E343.55583
G0 F10500 X82.832 Y95.914
G1 F1320 X90.409 Y103.490 E343.76578
G0 F10500 X90.409 Y102.783
G1 F1320 X82.832 Y95.206 E343.97574
G0 F10500 X82.832 Y94.499
G1 F1320 X90.409 Y102.076 E344.18570
G0 F10500 X90.409 Y101.369
G1 F1320 X82.832 Y93.792 E344.39567
G0 F10500 X82.832 Y93.085
G1 F1320 X90.409 Y100.662 E344.60563
G0 F10500 X90.409 Y99.955
G1 F1320 X82.832 Y92.378 E344.81559
G0 F10500 X82.832 Y91.671
G1 F1320 X90.409 Y99.248 E345.02555
G0 F10500 X90.409 Y98.540
G1 F1320 X82.832 Y90.964 E345.23550
G0 F10500 X82.832 Y90.257
G1 F1320 X90.461 Y97.886 E345.44691
G0 F10500 X91.168 Y97.886
G1 F1320 X82.832 Y89.550 E345.67790
G0 F10500 X82.832 Y88.843
G1 F1320 X91.875 Y97.886 E345.92849
G0 F10500 X92.582 Y97.886
G1 F1320 X82.832 Y88.135 E346.19868
G0 F10500 X82.832 Y87.428
G1 F1320 X93.290 Y97.886 E346.48848
G0 F10500 X93.997 Y97.886
G1 F1320 X82.832 Y86.721 E346.79787
G0 F10500 X82.832 Y86.014
G1 F1320 X94.704 Y97.886 E347.12685
G0 F10500 X95.411 Y97.886
G1 F1320 X82.832 Y85.307 E347.47542
G0 F10500 X82.832 Y84.600
G1 F1320 X96.118 Y97.886 E347.84358
G0 F10500 X96.825 Y97.886
G1 F1320 X82.832 Y83.893 E348.23133
G0 F10500 X82.832 Y83.186
G1 F1320 X97.532 Y97.886 E348.63868
G0 F10500 X98.239 Y97.886
G1 F1320 X82.832 Y82.479 E349.06562
G0 F10500 X82.832 Y81.771
G1 F1320 X98.946 Y97.886 E349.51216
G0 F10500 X99.653 Y97.886
G1 F1320 X82.832 Y81.064 E349.97829
G0 F10500 X82.832 Y80.357
G1 F1320 X100.361 Y97.886 E350.46403
G0 F10500 X101.068 Y97.886
G1 F1320 X82.832 Y79.650 E350.96936
G0 F10500 X82.832 Y78.943
G1 F1320 X101.775 Y97.886 E351.49428
G0 F10500 X102.482 Y97.886
G1 F1320 X82.832 Y78.236 E352.03879
G0 F10500 X82.832 Y77.529
G1 F1320 X103.189 Y97.886 E352.60290
G0 F10500 X103.896 Y97.886
G1 F1320 X82.832 Y76.822 E353.18659
G0 F10500 X82.832 Y76.115
G1 F1320 X104.603 Y97.886 E353.78988
G0 F10500 X105.310 Y97.886
G1 F1320 X82.832 Y75.407 E354.41277
G0 F10500 X82.832 Y74.700
G1 F1320 X106.017 Y97.886 E355.05526
G0 F10500 X106.725 Y97.886
G1 F1320 X82.832 Y73.993 E355.71734
G0 F10500 X82.832 Y73.286
G1 F1320 X107.432 Y97.886 E356.39902
G0 F10500 X108.139 Y97.886
G1 F1320 X82.832 Y72.579 E357.10030
G0 F10500 X82.832 Y71.872
G1 F1320 X108.846 Y97.886 E357.82116
G0 F10500 X109.553 Y97.886
G1 F1320 X99.631 Y87.964 E358.09610
G0 F10500 X97.523 Y85.856
G1 F1320 X82.832 Y71.165 E358.50320
G0 F10500 X82.832 Y70.458
G1 F1320 X96.322 Y83.947 E358.87700
G0 F10500 X95.793 Y82.712
G1 F1320 X82.832 Y69.751 E359.23616
G0 F10500 X82.832 Y69.044
G1 F1320 X95.479 Y81.691 E359.58661
G0 F10500 X95.280 Y80.784
G1 F1320 X82.832 Y68.336 E359.93155
G0 F10500 X82.832 Y67.629
G1 F1320 X95.170 Y79.967 E360.27345
G0 F10500 X95.116 Y79.206
G1 F1320 X82.832 Y66.922 E360.61384
G0 F10500 X82.832 Y66.215
G1 F1320 X95.110 Y78.493 E360.95407
G0 F10500 X95.146 Y77.822
G1 F1320 X82.832 Y65.508 E361.29530
G0 F10500 X82.832 Y64.801
G1 F1320 X95.216 Y77.184 E361.63846
G0 F10500 X95.316 Y76.578
G1 F1320 X82.832 Y64.094 E361.98439
G0 F10500 X82.832 Y63.387
G1 F1320 X95.445 Y75.999 E362.33389
G0 F10500 X95.597 Y75.444
G1 F1320 X82.832 Y62.680 E362.68760
G0 F10500 X82.832 Y61.972
G1 F1320 X95.771 Y74.911 E363.04615
G0 F10500 X95.964 Y74.397
G1 F1320 X82.832 Y61.265 E363.41005
G0 F10500 X82.832 Y60.558
G1 F1320 X96.176 Y73.902 E363.77982
G0 F10500 X96.411 Y73.430
G1 F1320 X82.832 Y59.851 E364.15610
G0 F10500 X82.832 Y59.144
G1 F1320 X96.662 Y72.974 E364.53934
G0 F10500 X96.930 Y72.535
G1 F1320 X82.832 Y58.437 E364.93000
G0 F10500 X82.832 Y57.730
G1 F1320 X97.213 Y72.110 E365.32849
G0 F10500 X97.510 Y71.701
G1 F1320 X82.832 Y57.023 E365.73523
G0 F10500 X82.832 Y56.316
G1 F1320 X97.827 Y71.311 E366.15075
G0 F10500 X98.159 Y70.936
G1 F1320 X82.832 Y55.608 E366.57548
G0 F10500 X82.802 Y54.871
G1 F1320 X98.505 Y70.574 E367.01062
G0 F10500 X98.864 Y70.227
G1 F1320 X82.507 Y53.869 E367.46390
G0 F10500 X80.900 Y52.262
G1 F1320 X73.730 Y45.092 E367.66258
G0 F10500 X74.437 Y45.092
G1 F1320 X99.241 Y69.896 E368.34991
G0 F10500 X99.634 Y69.582
G1 F1320 X75.144 Y45.092 E369.02854
G0 F10500 X75.851 Y45.092
G1 F1320 X100.042 Y69.283 E369.69889
G0 F10500 X100.465 Y68.998
G1 F1320 X76.558 Y45.092 E370.36135
G0 F10500 X77.265 Y45.092
G1 F1320 X100.904 Y68.730 E371.01639
G0 F10500 X101.360 Y68.480
G1 F1320 X77.972 Y45.092 E371.66448
G0 F10500 X78.679 Y45.092
G1 F1320 X89.710 Y56.123 E371.97016
G0 F10500 X89.847 Y56.260
G1 F1320 X101.837 Y68.249 E372.30240
G0 F10500 X102.336 Y68.041
G1 F1320 X90.554 Y56.260 E372.62887
G0 F10500 X91.262 Y56.260
G1 F1320 X102.846 Y67.844 E372.94987
G0 F10500 X103.379 Y67.670
G1 F1320 X91.969 Y56.260 E373.26604
G0 F10500 X92.676 Y56.260
G1 F1320 X103.934 Y67.518 E373.57801
G0 F10500 X104.515 Y67.392
G1 F1320 X93.383 Y56.260 E373.88648
G0 F10500 X94.090 Y56.260
G1 F1320 X105.121 Y67.291 E374.19216
G0 F10500 X105.759 Y67.221
G1 F1320 X94.797 Y56.260 E374.49591
G0 F10500 X95.504 Y56.260
G1 F1320 X106.430 Y67.186 E374.79867
G0 F10500 X107.138 Y67.187
G1 F1320 X96.211 Y56.260 E375.10147
G0 F10500 X96.918 Y56.260
G1 F1320 X107.901 Y67.243 E375.40581
G0 F10500 X108.724 Y67.358
G1 F1320 X97.625 Y56.260 E375.71336
G0 F10500 X98.333 Y56.260
G1 F1320 X109.625 Y67.552 E376.02627
G0 F10500 X110.654 Y67.874
G1 F1320 X99.040 Y56.260 E376.34810
G0 F10500 X99.747 Y56.260
G1 F1320 X111.892 Y68.405 E376.68464
G0 F10500 X113.809 Y69.615
G1 F1320 X100.454 Y56.260 E377.05472
G0 F10500 X101.161 Y56.260
G1 F1320 X124.594 Y79.693 E377.70406
G0 F10500 X124.594 Y78.985
G1 F1320 X101.868 Y56.260 E378.33379
G0 F10500 X102.575 Y56.260
G1 F1320 X124.594 Y78.278 E378.94394
G0 F10500 X124.594 Y77.571
G1 F1320 X103.282 Y56.260 E379.53449
G0 F10500 X103.989 Y56.260
G1 F1320 X124.594 Y76.864 E380.10546
G0 F10500 X124.594 Y76.157
G1 F1320 X104.697 Y56.260 E380.65681
G0 F10500 X105.404 Y56.260
G1 F1320 X124.594 Y75.450 E381.18858
G0 F10500 X124.594 Y74.743
G1 F1320 X106.111 Y56.260 E381.70075
G0 F10500 X106.818 Y56.260
G1 F1320 X124.594 Y74.036 E382.19334
G0 F10500 X124.594 Y73.329
G1 F1320 X107.525 Y56.260 E382.66633
G0 F10500 X108.232 Y56.260
G1 F1320 X124.594 Y72.621 E383.11971
G0 F10500 X124.594 Y71.914
G1 F1320 X108.939 Y56.260 E383.55351
G0 F10500 X109.646 Y56.260
G1 F1320 X124.594 Y71.207 E383.96771
G0 F10500 X124.594 Y70.500
G1 F1320 X110.353 Y56.260 E384.36233
G0 F10500 X111.061 Y56.260
G1 F1320 X124.594 Y69.793 E384.73733
G0 F10500 X124.594 Y69.086
G1 F1320 X111.768 Y56.260 E385.09275
G0 F10500 X112.475 Y56.260
G1 F1320 X124.594 Y68.379 E385.42857
G0 F10500 X124.594 Y67.672
G1 F1320 X113.182 Y56.260 E385.74481
G0 F10500 X113.889 Y56.260
G1 F1320 X124.594 Y66.965 E386.04145
G0 F10500 X124.594 Y66.258
G1 F1320 X114.596 Y56.260 E386.31850
G0 F10500 X115.303 Y56.260
G1 F1320 X124.594 Y65.550 E386.57594
G0 F10500 X124.594 Y64.843
G1 F1320 X116.010 Y56.260 E386.81380
G0 F10500 X116.717 Y56.260
G1 F1320 X124.594 Y64.136 E387.03206
G0 F10500 X124.594 Y63.429
G1 F1320 X117.424 Y56.260 E387.23073
G0 F10500 X118.132 Y56.260
G1 F1320 X124.594 Y62.722 E387.40980
G0 F10500 X124.594 Y62.015
G1 F1320 X118.839 Y56.260 E387.56927
G0 F10500 X119.546 Y56.260
G1 F1320 X124.594 Y61.308 E387.70915
G0 F10500 X124.594 Y60.601
G1 F1320 X120.253 Y56.260 E387.82944
G0 F10500 X120.960 Y56.260
G1 F1320 X124.594 Y59.894 E387.93014
G0 F10500 X124.594 Y59.186
G1 F1320 X121.667 Y56.260 E388.01124
G0 F10500 X122.374 Y56.260
G1 F1320 X124.594 Y58.479 E388.07274
G0 F10500 X124.594 Y57.772
G1 F1320 X123.081 Y56.260 E388.11465
G0 F10500 X123.788 Y56.260
G1 F1320 X124.594 Y57.065 E388.13698
G0 F10500 X124.594 Y56.358
G1 F1320 X124.496 Y56.260 E388.13969
G0 F10500 X115.872 Y71.678
G1 F1320 X124.594 Y80.400 E388.38138
G0 F10500 X124.594 Y81.107
G1 F1320 X117.065 Y73.577 E388.59003
G0 F10500 X117.598 Y74.818
G1 F1320 X124.594 Y81.814 E388.78389
G0 F10500 X124.594 Y82.521
G1 F1320 X117.921 Y75.848 E388.96881
G0 F10500 X118.117 Y76.751
G1 F1320 X124.594 Y83.228 E389.14829
G0 F10500 X124.594 Y83.935
G1 F1320 X118.234 Y77.575 E389.32453
G0 F10500 X118.289 Y78.338
G1 F1320 X124.594 Y84.642 E389.49923
G0 F10500 X124.594 Y85.349
G1 F1320 X118.292 Y79.048 E389.67385
G0 F10500 X118.255 Y79.718
G1 F1320 X124.594 Y86.057 E389.84950
G0 F10500 X124.594 Y86.764
G1 F1320 X118.187 Y80.357 E390.02704
G0 F10500 X118.088 Y80.965
G1 F1320 X124.594 Y87.471 E390.20733
G0 F10500 X124.594 Y88.178
G1 F1320 X117.960 Y81.544 E390.39116
G0 F10500 X117.811 Y82.102
G1 F1320 X124.594 Y88.885 E390.57912
G0 F10500 X124.594 Y89.592
G1 F1320 X117.635 Y82.633 E390.77196
G0 F10500 X117.439 Y83.144
G1 F1320 X124.594 Y90.299 E390.97023
G0 F10500 X124.594 Y91.006
G1 F1320 X117.224 Y83.637 E391.17444
G0 F10500 X116.992 Y84.111
G1 F1320 X124.594 Y91.713 E391.38510
G0 F10500 X124.594 Y92.420
G1 F1320 X116.743 Y84.569 E391.60265
G0 F10500 X116.478 Y85.011
G1 F1320 X124.594 Y93.128 E391.82757
G0 F10500 X124.594 Y93.835
G1 F1320 X116.193 Y85.434 E392.06036
G0 F10500 X115.891 Y85.839
G1 F1320 X124.594 Y94.542 E392.30153
G0 F10500 X124.594 Y95.249
G1 F1320 X115.576 Y86.231 E392.55142
G0 F10500 X115.248 Y86.610
G1 F1320 X124.594 Y95.956 E392.81040
G0 F10500 X124.594 Y96.663
G1 F1320 X114.902 Y86.972 E393.07896
G0 F10500 X114.540 Y87.317
G1 F1320 X124.594 Y97.370 E393.35755
G0 F10500 X124.402 Y97.886
G1 F1320 X114.163 Y87.646 E393.64129
G0 F10500 X113.772 Y87.963
G1 F1320 X123.695 Y97.886 E393.91626
G0 F10500 X122.988 Y97.886
G1 F1320 X113.367 Y88.265 E394.18287
G0 F10500 X112.941 Y88.546
G1 F1320 X122.281 Y97.886 E394.44168
G0 F10500 X121.574 Y97.886
G1 F1320 X112.500 Y88.812 E394.69313
G0 F10500 X112.043 Y89.062
G1 F1320 X120.867 Y97.886 E394.93765
G0 F10500 X120.160 Y97.886
G1 F1320 X111.570 Y89.296 E395.17568
G0 F10500 X111.080 Y89.513
G1 F1320 X119.452 Y97.886 E395.40769
G0 F10500 X118.745 Y97.886
G1 F1320 X110.567 Y89.707 E395.63432
G0 F10500 X110.031 Y89.878
G1 F1320 X118.038 Y97.886 E395.85621
G0 F10500 X117.331 Y97.886
G1 F1320 X109.476 Y90.030 E396.07389
G0 F10500 X108.896 Y90.158
G1 F1320 X116.624 Y97.886 E396.28804
G0 F10500 X115.917 Y97.886
G1 F1320 X108.290 Y90.259 E396.49939
G0 F10500 X107.653 Y90.329
G1 F1320 X115.210 Y97.886 E396.70880
G0 F10500 X114.503 Y97.886
G1 F1320 X106.981 Y90.364 E396.91724
G0 F10500 X106.269 Y90.359
G1 F1320 X113.796 Y97.886 E397.12581
G0 F10500 X113.089 Y97.886
G1 F1320 X105.511 Y90.308 E397.33580
G0 F10500 X104.690 Y90.195
G1 F1320 X112.381 Y97.886 E397.54893
G0 F10500 X111.674 Y97.886
G1 F1320 X103.782 Y89.993 E397.76763
G0 F10500 X102.759 Y89.678
G1 F1320 X110.967 Y97.886 E397.99508
G0 F10500 X110.260 Y97.886
G1 F1320 X101.521 Y89.147 E398.23724
G0 F10500 X90.693 Y98.171
G0 X79.440 Y110.906
G1 F1320 X74.138 Y105.604 E398.38416
G0 F10500 X73.430 Y105.604
G1 F1320 X78.733 Y110.906 E398.53110
G0 F10500 X78.026 Y110.906
G1 F1320 X72.723 Y105.604 E398.67803
G0 F10500 X72.016 Y105.604
G1 F1320 X77.319 Y110.906 E398.82497
G0 F10500 X76.612 Y110.906
G1 F1320 X71.309 Y105.604 E398.97190
G0 F10500 X70.602 Y105.604
G1 F1320 X75.905 Y110.906 E399.11884
G0 F10500 X75.197 Y110.906
G1 F1320 X69.895 Y105.604 E399.26576
G0 F10500 X69.188 Y105.604
G1 F1320 X74.490 Y110.906 E399.41268
G0 F10500 X73.783 Y110.906
G1 F1320 X68.481 Y105.604 E399.55960
G0 F10500 X67.774 Y105.604
G1 F1320 X73.076 Y110.906 E399.70653
G0 F10500 X72.369 Y110.906
G1 F1320 X67.066 Y105.604 E399.85346
G0 F10500 X66.359 Y105.604
G1 F1320 X71.662 Y110.906 E400.00040
G0 F10500 X70.955 Y110.906
G1 F1320 X65.652 Y105.604 E400.14733
G0 F10500 X64.945 Y105.604
G1 F1320 X70.248 Y110.906 E400.29427
G0 F10500 X69.541 Y110.906
G1 F1320 X64.238 Y105.604 E400.44120
G0 F10500 X63.531 Y105.604
G1 F1320 X68.834 Y110.906 E400.58814
G0 F10500 X68.126 Y110.906
G1 F1320 X62.824 Y105.604 E400.73506
G0 F10500 X62.117 Y105.604
G1 F1320 X67.419 Y110.906 E400.88198
G0 F10500 X66.712 Y110.906
G1 F1320 X61.410 Y105.604 E401.02890
G0 F10500 X60.702 Y105.604
G1 F1320 X66.005 Y110.906 E401.17584
G0 F10500 X65.298 Y110.906
G1 F1320 X59.995 Y105.604 E401.32277
G0 F10500 X59.288 Y105.604
G1 F1320 X64.591 Y110.906 E401.46971
G0 F10500 X63.884 Y110.906
G1 F1320 X58.581 Y105.604 E401.61664
G0 F10500 X57.874 Y105.604
G1 F1320 X63.177 Y110.906 E401.76358
G0 F10500 X62.470 Y110.906
G1 F1320 X57.167 Y105.604 E401.91051
G0 F10500 X56.460 Y105.604
G1 F1320 X61.762 Y110.906 E402.05743
G0 F10500 X61.055 Y110.906
G1 F1320 X55.753 Y105.604 E402.20436
G0 F10500 X55.046 Y105.604
G1 F1320 X60.348 Y110.906 E402.35128
G0 F10500 X59.641 Y110.906
G1 F1320 X54.339 Y105.604 E402.49820
G0 F10500 X53.631 Y105.604
G1 F1320 X58.934 Y110.906 E402.64513
G0 F10500 X58.227 Y110.906
G1 F1320 X52.924 Y105.604 E402.79207
G0 F10500 X52.217 Y105.604
G1 F1320 X57.520 Y110.906 E402.93900
G0 F10500 X56.813 Y110.906
G1 F1320 X51.510 Y105.604 E403.08594
G0 F10500 X50.803 Y105.604
G1 F1320 X56.106 Y110.906 E403.23288
G0 F10500 X55.398 Y110.906
G1 F1320 X50.096 Y105.604 E403.37980
G0 F10500 X49.389 Y105.604
G1 F1320 X54.691 Y110.906 E403.52672
G0 F10500 X53.984 Y110.906
G1 F1320 X48.682 Y105.604 E403.67364
G0 F10500 X47.975 Y105.604
G1 F1320 X53.277 Y110.906 E403.82056
G0 F10500 X52.570 Y110.906
G1 F1320 X47.267 Y105.604 E403.96750
G0 F10500 X46.560 Y105.604
G1 F1320 X51.863 Y110.906 E404.11443
G0 F10500 X51.156 Y110.906
G1 F1320 X45.853 Y105.604 E404.26137
G0 F10500 X45.146 Y105.604
G1 F1320 X50.449 Y110.906 E404.40830
G0 F10500 X49.742 Y110.906
G1 F1320 X44.428 Y105.592 E404.55556
G0 F10500 X43.507 Y105.379
G1 F1320 X49.035 Y110.906 E404.70873
G0 F10500 X48.327 Y110.906
G1 F1320 X35.404 Y97.983 E405.06683
G0 F10500 X35.404 Y98.690
G1 F1320 X47.620 Y110.906 E405.40534
G0 F10500 X46.913 Y110.906
G1 F1320 X35.404 Y99.398 E405.72425
G0 F10500 X35.404 Y97.276
G1 F1320 X41.608 Y103.480 E405.89617
G0 F10500 X41.384 Y102.549
G1 F1320 X35.404 Y96.569 E406.06187
G0 F10500 X35.404 Y95.862
G1 F1320 X41.371 Y101.829 E406.22722
G0 F10500 X41.371 Y101.121
G1 F1320 X35.404 Y95.155 E406.39256
G0 F10500 X35.404 Y94.448
G1 F1320 X41.371 Y100.414 E406.55789
G0 F10500 X35.404 Y100.105
G1 F1320 X46.206 Y110.906 E406.85721
G0 F10500 X45.499 Y110.906
G1 F1320 X35.404 Y100.812 E407.13693
G0 F10500 X35.404 Y101.519
G1 F1320 X44.792 Y110.906 E407.39707
G0 F10500 X44.085 Y110.906
G1 F1320 X35.404 Y102.226 E407.63761
G0 F10500 X35.404 Y102.933
G1 F1320 X43.378 Y110.906 E407.85856
G0 F10500 X42.671 Y110.906
G1 F1320 X35.404 Y103.640 E408.05992
G0 F10500 X35.404 Y104.347
G1 F1320 X41.963 Y110.906 E408.24167
G0 F10500 X41.256 Y110.906
G1 F1320 X35.404 Y105.054 E408.40383
G0 F10500 X35.404 Y105.761
G1 F1320 X40.549 Y110.906 E408.54640
G0 F10500 X39.842 Y110.906
G1 F1320 X35.404 Y106.469 E408.66937
G0 F10500 X35.404 Y107.176
G1 F1320 X39.135 Y110.906 E408.77274
G0 F10500 X38.428 Y110.906
G1 F1320 X35.404 Y107.883 E408.85653
G0 F10500 X35.404 Y108.590
G1 F1320 X37.721 Y110.906 E408.92072
G0 F10500 X37.014 Y110.906
G1 F1320 X35.404 Y109.297 E408.96532
G0 F10500 X35.404 Y110.004
G1 F1320 X36.307 Y110.906 E408.99033
G0 F10500 X35.599 Y110.906
G1 F1320 X35.404 Y110.711 E408.99573
G0 F10500 X41.371 Y99.707
G1 F1320 X35.404 Y93.741 E409.16107
G0 F10500 X35.404 Y93.034
G1 F1320 X41.371 Y99.000 E409.32640
G0 F10500 X41.371 Y98.293
G1 F1320 X35.404 Y92.326 E409.49175
G0 F10500 X35.404 Y91.619
G1 F1320 X41.371 Y97.586 E409.65710
G0 F10500 X41.371 Y96.879
G1 F1320 X35.404 Y90.912 E409.82245
G0 F10500 X35.404 Y90.205
G1 F1320 X41.371 Y96.172 E409.98780
G0 F10500 X41.371 Y95.465
G1 F1320 X35.404 Y89.498 E410.15315
G0 F10500 X35.404 Y88.791
G1 F1320 X41.371 Y94.757 E410.31848
G0 F10500 X41.371 Y94.050
G1 F1320 X35.404 Y88.084 E410.48382
G0 F10500 X35.404 Y87.377
G1 F1320 X41.371 Y93.343 E410.64915
G0 F10500 X41.371 Y92.636
G1 F1320 X35.404 Y86.670 E410.81449
G0 F10500 X35.404 Y85.962
G1 F1320 X41.371 Y91.929 E410.97984
G0 F10500 X41.371 Y91.222
G1 F1320 X35.404 Y85.255 E411.14518
G0 F10500 X35.404 Y84.548
G1 F1320 X41.371 Y90.515 E411.31053
G0 F10500 X41.371 Y89.808
G1 F1320 X35.404 Y83.841 E411.47588
G0 F10500 X35.404 Y83.134
G1 F1320 X41.371 Y89.101 E411.64123
G0 F10500 X41.371 Y88.394
G1 F1320 X35.404 Y82.427 E411.80658
G0 F10500 X35.404 Y81.720
G1 F1320 X41.371 Y87.686 E411.97192
G0 F10500 X41.371 Y86.979
G1 F1320 X35.404 Y81.013 E412.13725
G0 F10500 X35.404 Y80.306
G1 F1320 X41.371 Y86.272 E412.30259
G0 F10500 X41.371 Y85.565
G1 F1320 X35.404 Y79.599 E412.46792
G0 F10500 X35.404 Y78.891
G1 F1320 X41.371 Y84.858 E412.63327
G0 F10500 X41.371 Y84.151
G1 F1320 X35.404 Y78.184 E412.79862
G0 F10500 X35.404 Y77.477
G1 F1320 X41.371 Y83.444 E412.96397
G0 F10500 X41.371 Y82.737
G1 F1320 X35.404 Y76.770 E413.12932
G0 F10500 X35.404 Y76.063
G1 F1320 X41.371 Y82.030 E413.29467
G0 F10500 X41.371 Y81.322
G1 F1320 X35.404 Y75.356 E413.46000
G0 F10500 X35.404 Y74.649
G1 F1320 X41.371 Y80.615 E413.62534
G0 F10500 X41.371 Y79.908
G1 F1320 X35.404 Y73.942 E413.79067
G0 F10500 X35.404 Y73.235
G1 F1320 X41.371 Y79.201 E413.95601
G0 F10500 X41.371 Y78.494
G1 F1320 X35.404 Y72.527 E414.12135
G0 F10500 X35.404 Y71.820
G1 F1320 X41.371 Y77.787 E414.28670
G0 F10500 X41.371 Y77.080
G1 F1320 X35.404 Y71.113 E414.45205
G0 F10500 X35.404 Y70.406
G1 F1320 X41.371 Y76.373 E414.61740
G0 F10500 X41.371 Y75.666
